!!!!SEGMENT: pl-cz--iii-668--001-009_scigalski-franciszek--missa-agnus-dei.krn
!!!cenid: 18xx:1104
!!!COM: Ścigalski, Franciszek
!!!COM-rismID:
!!!CDT: 1782/01/29-1846/09/27
!!!CNT: Polish
!!!OPR: Missa
!!!OTL: Agnus Dei
!!!OMV: 009
!!!PDT: 1827
!!!AGN: Sacred; Mass
!!!SMS-siglum: PL-CZ
!!!SMS-shelfmark: III-668
!!!SMS-shelfwork: 001-009 M
!!!SMS-variant:
!!!SMS-altvar:
!!!NIFC-rismSourceID: 300001313
!!!NIFC-islandoraID: pl-cz:39783
!!!URL-pdf-islandora: https://repozytorium.nifc.pl/islandora/object/pl-cz%3A39783/datastream/PDF/view
!!!URL-scan:
!!!ONB-nifc: UWAGA: części Mszy: Kyrie, Gloria, Credo, Et incarnatus, Et resurrexit, Sanctus, Pleni sunt, Benedictus, Agnus Dei, Dona nobis
!!!AIN: 1 alto 1 bass 2 clars 2 fagot 1 flt 1 organ 1 soprn 1 tenor 1 timpa 2 tromp 1 viola 2 violn
!!!key: D-
**kern	**fba	**dynam	**kern	**dynam	**kern	**dynam	**kern	**dynam	**kern	**text	**dynam	**kern	**text	**dynam	**kern	**text	**dynam	**kern	**text	**dynam	**kern	**dynam	**kern	**dynam	**kern	**dynam	**kern	**dynam	**kern	**dynam	**kern	**dynam	**kern	**dynam	**kern	**dynam
*part16	*	*part16	*part15	*part15	*part14	*part14	*part13	*part13	*part12	*part12	*part12	*part11	*part11	*part11	*part10	*part10	*part10	*part9	*part9	*part9	*part8	*part8	*part7	*part7	*part6	*part6	*part5	*part5	*part4	*part4	*part3	*part3	*part2	*part2	*part1	*part1
*staff16	*	*	*staff15	*	*staff14	*	*staff13	*	*staff12	*staff12	*	*staff11	*staff11	*	*staff10	*staff10	*	*staff9	*staff9	*	*staff8	*	*staff7	*	*staff6	*	*staff5	*	*staff4	*	*staff3	*	*staff2	*	*staff1	*
*I"Organo et violoncello	*	*	*I"Alto Viola.	*	*I"Violino 2do	*	*I"Violino 1mo	*	*I"Baſso	*	*	*I"Tenore	*	*	*I"Alto	*	*	*I"Canto	*	*	*I"Tympani in B.F.	*	*I"Clarino 2do in B.	*	*I"Clarino 1mo in B.	*	*I"Fagotto 2do	*	*I"Fagotto 1mo	*	*I"Clarinetto 2do in B	*	*I"Clarinetto 1mo in B.	*	*I"Flauto	*
*I'org et vlc	*	*	*I'a-vla	*	*I'vl II	*	*I'vl I	*	*I'B	*	*	*I'T	*	*	*I'A	*	*	*I'S	*	*	*I'timp	*	*I'clno II	*	*I'clno I	*	*I'fag II	*	*I'fag I	*	*I'cl II	*	*I'cl I	*	*I'fl	*
*ICklav	*	*	*ICstr	*	*ICstr	*	*ICstr	*	*ICvox	*	*	*ICvox	*	*	*ICvox	*	*	*ICvox	*	*	*ICidio	*	*ICbras	*	*ICbras	*	*ICww	*	*ICww	*	*ICww	*	*ICww	*	*ICww	*
*Iorgan	*	*	*Iviola	*	*Ivioln	*	*Ivioln	*	*Ibass	*	*	*Itenor	*	*	*Ialto	*	*	*Isoprn	*	*	*Itimpa	*	*Itromp	*	*Itromp	*	*Ifagot	*	*Ifagot	*	*Iclars	*	*Iclars	*	*Iflt	*
*clefF4	*	*	*clefC3	*	*clefG2	*	*clefG2	*	*clefF4	*	*	*clefC4	*	*	*clefC3	*	*	*clefC1	*	*	*clefF4	*	*clefG2	*	*clefG2	*	*clefF4	*	*clefF4	*	*clefG2	*	*clefG2	*	*clefG2	*
*	*	*	*	*	*	*	*	*	*	*	*	*	*	*	*	*	*	*	*	*	*ITrd1c2	*	*ITrd1c2	*	*ITrd1c2	*	*	*	*	*	*ITrd1c2	*	*ITrd1c2	*	*	*
*k[b-e-a-d-g-]	*	*	*k[b-e-a-d-g-]	*	*k[b-e-a-d-g-]	*	*k[b-e-a-d-g-]	*	*k[b-e-a-d-g-]	*	*	*k[b-e-a-d-g-]	*	*	*k[b-e-a-d-g-]	*	*	*k[b-e-a-d-g-]	*	*	*k[b-e-]	*	*k[b-e-]	*	*k[b-e-]	*	*k[b-e-a-d-g-]	*	*k[b-e-a-d-g-]	*	*k[b-e-a-d-g-]	*	*k[b-e-a-d-g-]	*	*k[b-e-a-d-g-]	*
*D-:	*	*	*D-:	*	*D-:	*	*D-:	*	*D-:	*	*	*D-:	*	*	*D-:	*	*	*D-:	*	*	*	*	*	*	*	*	*D-:	*	*D-:	*	*D-:	*	*D-:	*	*D-:	*
*M6/8	*	*	*M6/8	*	*M6/8	*	*M6/8	*	*M6/8	*	*	*M6/8	*	*	*M6/8	*	*	*M6/8	*	*	*M6/8	*	*M6/8	*	*M6/8	*	*M6/8	*	*M6/8	*	*M6/8	*	*M6/8	*	*M6/8	*
=1	=1	=1	=1	=1	=1	=1	=1	=1	=1	=1	=1	=1	=1	=1	=1	=1	=1	=1	=1	=1	=1	=1	=1	=1	=1	=1	=1	=1	=1	=1	=1	=1	=1	=1	=1	=1
*2\right	*	*	*	*	*	*	*	*	*2\right	*	*	*2\right	*	*	*2\right	*	*	*2\right	*	*	*	*	*	*	*	*	*2\right	*	*	*	*2\right	*	*	*	*	*
!LO:TX:a:i:t=Tasto	!	!	!	!	!	!	!	!	!LO:TX:a:t=6.	!	!	!LO:TX:a:t=6.	!	!	!LO:TX:a:B:t=andante	!	!	!LO:TX:a:B:t=andante	!	!	!	!	!	!	!	!	!	!	!	!	!	!	!	!	!	!
!LO:TX:a:i:B:t=Agnus	!	!	!LO:TX:a:B:t=Andante	!	!LO:TX:a:i:B:t=Andante	!	!LO:TX:a:i:B:t=Agnus	!	!LO:TX:a:i:B:t=andante	!	!	!LO:TX:a:i:B:t=andante	!	!	!LO:TX:a:i:B:t=Agnus	!	!	!LO:TX:a:i:B:t=Agnus	!	!	!LO:TX:a:i:B:t=Andante	!	!LO:TX:a:i:B:t=andante	!	!LO:TX:a:B:t=andante.	!	!LO:TX:a:B:t=andante	!	!LO:TX:a:i:B:t=andante	!	!LO:TX:a:i:B:t=Andante	!	!LO:TX:a:i:B:t=Andante	!	!LO:TX:a:i:B:t=Andante	!
!LO:TX:a:B:t=andante	!	!	!LO:TX:a:i:B:t=Agnus	!	!LO:TX:a:i:B:t=Agnus	!	!LO:TX:a:i:B:t=Andante	!	!LO:TX:a:i:B:t=Agnus	!	!	!LO:TX:a:i:B:t=Agnus	!	!	!LO:TX:a:t=6.	!	!	!LO:TX:a:t=6.	!	!	!LO:TX:a:i:B:t=Agnus	!	!LO:TX:a:i:B:t=Agnus	!	!LO:TX:a:i:B:t=Agnus	!	!LO:TX:a:i:B:t=Agnus	!	!LO:TX:a:i:B:t=Agnus	!	!LO:TX:a:i:B:t=Agnus	!	!LO:TX:a:i:B:t=Agnus	!	!LO:TX:a:i:B:t=Agnus	!
8BB-/L	.	p	8B-/L	p	8B-/L	p	8B-/L	p	2.r	.	.	2.r	.	.	2.r	.	.	2.r	.	.	4r	.	4r	.	4r	.	4r	.	4r	.	4r	.	4r	.	4r	.
8BB-/	.	.	8B-/	.	8B-/	.	8B-/	.	.	.	.	.	.	.	.	.	.	.	.	.	.	.	.	.	.	.	.	.	.	.	.	.	.	.	.	.
8BB-/J	.	.	8B-/J	.	8B-/J	.	8B-/J	.	.	.	.	.	.	.	.	.	.	.	.	.	8r	.	8r	.	8r	p	8r	p	8r	p	8r	p	8r	p	8r	p
.	.	.	.	.	(16qqB-/LL	sf	(16qqB-/LL	sf	.	.	.	.	.	.	.	.	.	.	.	.	.	.	.	.	.	.	.	.	.	.	.	.	.	.	.	.
.	.	.	.	.	16qqc/JJ	.	16qqc/JJ	.	.	.	.	.	.	.	.	.	.	.	.	.	.	.	.	.	.	.	.	.	.	.	.	.	.	.	.	.
!	!	!	!	!LO:DY:t=sf.	!	!	!	!	!	!	!	!	!	!	!	!	!	!	!	!	!	!	!	!	!	!	!	!	!	!	!	!	!	!	!	!
!	!	!	!	!	!	!	!	!	!	!	!	!	!	!	!	!	!	!	!	!	!	!	!	!	!	!	!	!	!	!	!	!	!	!LO:DY:t=sf.	!	!
!	!	!	!	!	!	!	!	!	!	!	!	!	!	!	!	!	!	!	!	!	!	!LO:DY:t=sf.	!	!	!	!LO:DY:t=sf.	!	!	!	!LO:DY:t=sf.	!	!	!	!	!	!
8BB-^</L	.	sf	4.B-^</	sf	8.d-^</L)	.	8.d-^</L)	.	.	.	.	.	.	.	.	.	.	.	.	.	8BB-^</L	sf	8B-^</L	sf	8B-^</L	sf	8BB-^</L	sf	8BB-^</L	sf	8B-^</L	sf	8B-^</L	sf	8b-^\L	sf
8BB-/	.	.	.	.	.	.	.	.	.	.	.	.	.	.	.	.	.	.	.	.	8BB-/	.	8B-/	.	8B-/	.	8BB-/	.	8BB-/	.	8B-/	.	8B-/	.	8b-\	.
!	!	!	!	!	!	!	!LO:N:vis=8	!	!	!	!	!	!	!	!	!	!	!	!	!	!	!	!	!	!	!	!	!	!	!	!	!	!	!	!	!
.	.	.	.	.	16c/K	.	16c/K	.	.	.	.	.	.	.	.	.	.	.	.	.	.	.	.	.	.	.	.	.	.	.	.	.	.	.	.	.
8BB-/J	.	.	.	.	8B-/J	.	8B-/J	.	.	.	.	.	.	.	.	.	.	.	.	.	8BB-/J	.	8B-/J	.	8B-/J	.	8BB-/J	.	8BB-/J	.	8B-/J	.	8B-/J	.	8b-\J	.
=2	=2	=2	=2	=2	=2	=2	=2	=2	=2	=2	=2	=2	=2	=2	=2	=2	=2	=2	=2	=2	=2	=2	=2	=2	=2	=2	=2	=2	=2	=2	=2	=2	=2	=2	=2	=2
*tremolo	*	*	*	*	*	*	*	*	*	*	*	*	*	*	*	*	*	*	*	*	*	*	*	*	*	*	*	*	*	*	*	*	*	*	*	*
*	*	*	*	*	*tremolo	*	*	*	*	*	*	*	*	*	*	*	*	*	*	*	*	*	*	*	*	*	*	*	*	*	*	*	*	*	*	*
!	!	!	!	!	!LO:TX:t=P:problem=3 kropki art.	!	!	!	!	!	!	!	!	!	!	!	!	!	!	!	!	!	!	!	!	!	!	!	!	!	!	!	!	!	!	!
8BB-/L	.	.	4.B-/	.	8B-/L	.	8B-/L	.	2.r	.	.	2.r	.	.	2.r	.	.	2.r	.	.	4r	.	4r	.	4r	.	4r	.	4r	.	4r	.	4r	.	4r	.
8BB-/	.	.	.	.	8B-/	.	8B-/	.	.	.	.	.	.	.	.	.	.	.	.	.	.	.	.	.	.	.	.	.	.	.	.	.	.	.	.	.
8BB-/J	.	.	.	.	8B-/J	.	8B-/J	.	.	.	.	.	.	.	.	.	.	.	.	.	8r	.	8r	.	8r	.	8r	.	8r	.	8r	.	8r	.	8r	.
*	*	*	*	*	*	*	*	*	*	*	*	*	*	*	*	*	*	*	*	*	*tremolo	*	*	*	*	*	*	*	*	*	*	*	*	*	*	*
*	*	*	*	*	*	*	*	*	*	*	*	*	*	*	*	*	*	*	*	*	*	*	*tremolo	*	*	*	*	*	*	*	*	*	*	*	*	*
*	*	*	*	*	*	*	*	*	*	*	*	*	*	*	*	*	*	*	*	*	*	*	*	*	*tremolo	*	*	*	*	*	*	*	*	*	*	*
*	*	*	*	*	*	*	*	*	*	*	*	*	*	*	*	*	*	*	*	*	*	*	*	*	*	*	*tremolo	*	*	*	*	*	*	*	*	*
*	*	*	*	*	*	*	*	*	*	*	*	*	*	*	*	*	*	*	*	*	*	*	*	*	*	*	*	*	*tremolo	*	*	*	*	*	*	*
*	*	*	*	*	*	*	*	*	*	*	*	*	*	*	*	*	*	*	*	*	*	*	*	*	*	*	*	*	*	*	*tremolo	*	*	*	*	*
*	*	*	*	*	*	*	*	*	*	*	*	*	*	*	*	*	*	*	*	*	*	*	*	*	*	*	*	*	*	*	*	*	*tremolo	*	*	*
*Xtremolo	*	*	*	*	*	*	*	*	*	*	*	*	*	*	*	*	*	*	*	*	*	*	*	*	*	*	*	*	*	*	*	*	*	*	*tremolo	*
.	.	.	.	.	(16qqB-/LL	sf sf	(16qqB-/LL	sf	.	.	.	.	.	.	.	.	.	.	.	.	.	.	.	.	.	.	.	.	.	.	.	.	.	.	.	.
!	!	!	!	!	!	!	!	!	!	!	!	!	!	!	!	!	!	!	!	!	!	!	!	!	!LO:TX:t=P:problem=3 kropki art.	!	!	!	!	!	!	!	!	!	!	!
.	.	.	.	.	16qqc/JJ	.	16qqc/JJ	.	.	.	.	.	.	.	.	.	.	.	.	.	.	.	.	.	.	.	.	.	.	.	.	.	.	.	.	.
!	!	!	!	!	!	!	!	!	!	!	!	!	!	!	!	!	!	!	!	!	!	!	!	!	!	!	!	!	!	!	!	!	!	!	!	!LO:DY:t=sf.
!	!	!	!	!	!	!	!	!	!	!	!	!	!	!	!	!	!	!	!	!	!	!LO:DY:t=sf.	!	!	!	!	!	!	!	!LO:DY:t=sf.	!	!	!	!	!	!
8BB-^</L	.	sf	4.B-^</	sf sf	8.d-^</L)	.	8.d-^</L)	.	.	.	.	.	.	.	.	.	.	.	.	.	8BB-^</L	sf	8B-^</L	.	8B-^<'/L	sf	8BB-^</L	.	8BB-^<'/L	sf	8B-^<'/L	sf	8B-^<'/L	sf	8b-^\L	sf
8BB-/	.	.	.	.	.	.	.	.	.	.	.	.	.	.	.	.	.	.	.	.	8BB-^</	.	8B-^</	.	8B-^<'/	.	8BB-^</	.	8BB-^<'/	.	8B-^<'/	.	8B-^<'/	.	8b-^\	.
!	!	!	!	!	!	!	!LO:N:vis=8	!	!	!	!	!	!	!	!	!	!	!	!	!	!	!	!	!	!	!	!	!	!	!	!	!	!	!	!	!
.	.	.	.	.	16c/K	.	16c/K	.	.	.	.	.	.	.	.	.	.	.	.	.	.	.	.	.	.	.	.	.	.	.	.	.	.	.	.	.
!	!	!	!	!	!	!	!LO:TX:t=P:problem=takt wykreślony	!	!	!	!	!	!	!	!	!	!	!	!	!	!	!	!	!	!	!	!	!	!	!	!	!	!	!	!	!
8BB-/J	.	.	.	.	8B-/J	.	8B-/J	.	.	.	.	.	.	.	.	.	.	.	.	.	8BB-^</J	.	8B-^</J	.	8B-^<'/J	.	8BB-^</J	.	8BB-^<'/J	.	8B-^<'/J	.	8B-^<'/J	.	8b-^\J	.
=3	=3	=3	=3	=3	=3	=3	=3	=3	=3	=3	=3	=3	=3	=3	=3	=3	=3	=3	=3	=3	=3	=3	=3	=3	=3	=3	=3	=3	=3	=3	=3	=3	=3	=3	=3	=3
*tremolo	*	*	*	*	*	*	*tremolo	*	*	*	*	*	*	*	*	*	*	*	*	*	*	*	*	*	*	*	*	*	*	*	*	*	*	*	*	*
!	!	!	!	!	!LO:TX:t=P:problem=3 kropki art.	!	!	!	!	!	!	!	!	!	!	!	!	!	!	!	!	!	!	!	!	!	!	!	!	!	!	!	!	!	!	!
8BB-/L	.	.	4.B-/	.	8c/L	.	8c/L	.	2.r	.	.	2.r	.	.	2.r	.	.	2.r	.	.	4r	.	4r	.	4r	.	4r	.	4r	.	4r	.	4r	.	4r	.
8BB-/	.	.	.	.	8c/	.	8c/	.	.	.	.	.	.	.	.	.	.	.	.	.	.	.	.	.	.	.	.	.	.	.	.	.	.	.	.	.
8BB-/J	.	.	.	.	8c/J	.	8c/J	.	.	.	.	.	.	.	.	.	.	.	.	.	8r	.	8r	.	8r	.	8r	.	8r	.	8r	.	8r	.	8r	.
.	.	.	.	.	(16qqc/LL	sf	(16qqc/LL	sf	.	.	.	.	.	.	.	.	.	.	.	.	.	.	.	.	.	.	.	.	.	.	.	.	.	.	.	.
!	!	!	!	!	!	!	!	!	!	!	!	!	!	!	!	!	!	!	!	!	!	!	!	!	!LO:TX:t=P:problem=3 kropki art.	!	!	!	!	!	!	!	!	!	!	!
.	.	.	.	.	16qqd-/JJ	.	16qqd-/JJ	.	.	.	.	.	.	.	.	.	.	.	.	.	.	.	.	.	.	.	.	.	.	.	.	.	.	.	.	.
!	!	!	!	!LO:DY:t=sf.	!	!	!	!	!	!	!	!	!	!	!	!	!	!	!	!	!	!	!	!	!	!	!	!	!	!	!	!	!	!	!	!LO:DY:t=sf.
!	!	!LO:DY:t=sf.	!	!	!	!	!	!	!	!	!	!	!	!	!	!	!	!	!	!	!	!LO:DY:t=sf.	!	!	!	!	!	!	!	!LO:DY:t=sf.	!	!	!	!	!	!
*Xtremolo	*	*	*	*	*	*	*	*	*	*	*	*	*	*	*	*	*	*	*	*	*	*	*	*	*	*	*	*	*	*	*	*	*	*	*	*
8BB-^</L	.	sf	4.B-^</	sf	8.e-^</L)	.	8.e-^</L)	.	.	.	.	.	.	.	.	.	.	.	.	.	8BB-^</L	sf	8B-^</L	.	8B-^<'/L	sf	8BB-^</L	.	8BB-^<'/L	sf	8B-^<'/L	sf	8B-^<'/L	sf	8b-^\L	sf
8BB-/	.	.	.	.	.	.	.	.	.	.	.	.	.	.	.	.	.	.	.	.	8BB-^</	.	8B-^</	.	8B-^<'/	.	8BB-^</	.	8BB-^<'/	.	8B-^<'/	.	8B-^<'/	.	8b-^\	.
.	.	.	.	.	16d-/K	.	16d-/K	.	.	.	.	.	.	.	.	.	.	.	.	.	.	.	.	.	.	.	.	.	.	.	.	.	.	.	.	.
8BB-/J	.	.	.	.	8c/J	.	8c/J	.	.	.	.	.	.	.	.	.	.	.	.	.	8BB-^</J	.	8B-^</J	.	8B-^<'/J	.	8BB-^</J	.	8BB-^<'/J	.	8B-^<'/J	.	8B-^<'/J	.	8b-^\J	.
=4	=4	=4	=4	=4	=4	=4	=4	=4	=4	=4	=4	=4	=4	=4	=4	=4	=4	=4	=4	=4	=4	=4	=4	=4	=4	=4	=4	=4	=4	=4	=4	=4	=4	=4	=4	=4
*tremolo	*	*	*	*	*	*	*	*	*	*	*	*	*	*	*	*	*	*	*	*	*	*	*	*	*	*	*	*	*	*	*	*	*	*	*	*
!	!	!	!	!	!LO:TX:t=P:problem=3 kropki art.	!	!	!	!	!	!	!	!	!	!	!	!	!	!	!	!	!	!	!	!	!	!	!	!	!	!	!	!	!	!	!
8BB-/L	.	.	4.B-/	.	8c/L	.	8c/L	.	2.r	.	.	2.r	.	.	2.r	.	.	2.r	.	.	4r	.	4r	.	4r	.	4r	.	4r	.	4r	.	4r	.	4r	.
8BB-/	.	.	.	.	8c/	.	8c/	.	.	.	.	.	.	.	.	.	.	.	.	.	.	.	.	.	.	.	.	.	.	.	.	.	.	.	.	.
8BB-/J	.	.	.	.	8c/J	.	8c/J	.	.	.	.	.	.	.	.	.	.	.	.	.	8r	.	8r	.	8r	.	8r	.	8r	.	8r	.	8r	.	8r	.
.	.	.	.	.	(16qqc/LL	sf	(16qqc/LL	sf	.	.	.	.	.	.	.	.	.	.	.	.	.	.	.	.	.	.	.	.	.	.	.	.	.	.	.	.
!	!	!	!	!	!	!	!	!	!	!	!	!	!	!	!	!	!	!	!	!	!	!	!	!	!LO:TX:t=P:problem=3 kropki art.	!	!	!	!	!	!	!	!	!	!	!
.	.	.	.	.	16qqd-/JJ	.	16qqd-/JJ	.	.	.	.	.	.	.	.	.	.	.	.	.	.	.	.	.	.	.	.	.	.	.	.	.	.	.	.	.
!	!	!	!	!LO:DY:t=sf.	!	!	!	!	!	!	!	!	!	!	!	!	!	!	!	!	!	!	!	!	!	!	!	!	!	!	!	!	!	!	!	!
!	!	!	!	!	!	!	!	!	!	!	!	!	!	!	!	!	!	!	!	!	!	!LO:DY:t=sf.	!	!	!	!	!	!	!	!LO:DY:t=sf.	!	!	!	!	!	!
*Xtremolo	*	*	*	*	*	*	*	*	*	*	*	*	*	*	*	*	*	*	*	*	*	*	*	*	*	*	*	*	*	*	*	*	*	*	*	*
8BB-^</L	.	sf	4.B-^</	sf	8.e-^/L)	.	8.e-^</L)	.	.	.	.	.	.	.	.	.	.	.	.	.	8BB-^</L	sf	8B-^</L	.	8B-^<'/L	sf	8BB-^</L	.	8BB-^</L	sf	8B-^<'/L	sf	8B-^<'/L	sf	8b-^\L	sf
8BB-/	.	.	.	.	.	.	.	.	.	.	.	.	.	.	.	.	.	.	.	.	8BB-^</	.	8B-^</	.	8B-^<'/	.	8BB-^</	.	8BB-^</	.	8B-^<'/	.	8B-^<'/	.	8b-^\	.
!	!	!	!	!	!	!	!LO:N:vis=8	!	!	!	!	!	!	!	!	!	!	!	!	!	!	!	!	!	!	!	!	!	!	!	!	!	!	!	!	!
.	.	.	.	.	16d-/K	.	16d-/K	.	.	.	.	.	.	.	.	.	.	.	.	.	.	.	.	.	.	.	.	.	.	.	.	.	.	.	.	.
8BB-/J	.	.	.	.	8c/J	.	8c/J	.	.	.	.	.	.	.	.	.	.	.	.	.	8BB-^</J	.	8B-^</J	.	8B-^<'/J	.	8BB-^</J	.	8BB-^</J	.	8B-^<'/J	.	8B-^<'/J	.	8b-^\J	.
!	!	!	!	!	!	!	!LO:LB:g=original	!	!	!	!	!	!	!	!	!	!	!	!	!	!	!	!	!	!	!	!	!	!	!	!	!	!	!	!	!
!	!	!	!	!	!LO:LB:g=original	!	!	!	!	!	!	!	!	!	!	!	!	!	!	!	!	!	!	!	!	!	!	!	!	!	!	!	!	!	!	!
=5	=5	=5	=5	=5	=5	=5	=5	=5	=5	=5	=5	=5	=5	=5	=5	=5	=5	=5	=5	=5	=5	=5	=5	=5	=5	=5	=5	=5	=5	=5	=5	=5	=5	=5	=5	=5
!	!	!LO:DY:a	!	!LO:DY:a	!	!	!	!LO:DY:b	!	!	!	!	!	!	!	!	!	!	!	!	!	!LO:DY:a	!	!LO:DY:a	!LO:TX:t=P:problem=3 kropki art.	!LO:DY:a	!	!	!	!LO:DY:a	!	!	!	!LO:DY:a	!	!
*tremolo	*	*	*	*	*Xtremolo	*	*Xtremolo	*	*	*	*	*	*	*	*	*	*	*	*	*	*	*	*	*	*	*	*	*	*	*	*	*	*	*	*Xtremolo	*
!	!	!	!	!	!	!	!	!LO:HP:t=crescendo	!	!	!	!	!	!	!	!	!	!	!	!	!	!	!	!	!	!	!	!	!	!	!	!	!	!	!	!LO:HP:t=crescendo
!	!	!	!	!	!	!	!	!	!	!	!	!	!	!	!	!	!	!	!	!	!	!	!	!	!	!	!	!	!	!	!	!	!	!LO:DY:b	!	!
!	!	!	!	!	!	!	!	!	!	!	!	!	!	!	!	!	!	!	!	!	!	!	!	!	!	!	!	!	!LO:TX:t=P:problem= dodatkowy znak crescendo zapisany nad systemem	!	!	!	!	!	!	!
!LO:TX:t=P:problem= dodatkowy znak crescendo zapisany nad systemem	!	!	!	!	!	!	!	!	!	!	!	!	!	!	!	!	!	!	!	!	!LO:TX:t=P:problem= dodatkowy znak crescendo zapisany nad systemem	!	!	!	!	!	!	!	!	!LO:HP:t=crescendo	!	!	!	!	!	!
!	!	!LO:HP:t=crescendo	!	!	!	!	!	!	!	!	!	!	!	!	!	!	!	!	!	!	!	!LO:HP:t=crescendo	!	!	!	!	!	!	!	!	!	!	!	!	!	!
8BB-/L	5 3	<	8B-/L	<	(8B-/L	.	(8d-/L	<	2.r	.	.	2.r	.	.	2.r	.	.	2.r	.	.	8BB-/L	<	8B-/L	<	8B-'/L	p	8BB-/L	p	8BB-/L	<	4.B-/	p	4.d-X/	p	(8dd-\L	.
!	!	!	!	!	!	!LO:DY:a	!	!	!	!	!	!	!	!	!	!	!	!	!	!	!	!	!	!	!	!	!	!	!	!	!	!	!	!	!	!
!	!	!	!	!	!	!LO:DY:a	!	!	!	!	!	!	!	!	!	!	!	!	!	!	!	!	!	!	!	!	!	!	!	!	!	!	!	!	!	!
!	!	!	!	!	!	!	!	!	!	!	!	!	!	!	!	!	!	!	!	!	!	!	!	!	!	!	!	!	!	!	!	!	!	!LO:HP:t=crescendo	!	!
8BB-/	.	.	8F/	.	8d-/)	<	8f/)	.	.	.	.	.	.	.	.	.	.	.	.	.	8BB-/	.	8B-/	.	8B-'/	.	8BB-/	.	8BB-/	.	.	.	.	.	8ff\)	.
8BB-/J	.	.	8F/J	.	8d-'/J	.	8f'/J	.	.	.	.	.	.	.	.	.	.	.	.	.	8BB-/J	.	8B-/J	.	8B-'/J	.	8BB-/J	.	8BB-/J	.	.	.	.	.	8ff'\J	.
*	*	*	*tremolo	*	*	*	*	*	*	*	*	*	*	*	*	*	*	*	*	*	*	*	*	*	*Xtremolo	*	*	*	*	*	*	*	*	*	*	*
!	!	!	!	!	!	!	!	!	!	!	!	!	!	!	!	!	!	!	!	!	!	!	!	!	!	!	!	!	!	!	!	!LO:DY:a	!	!	!	!
!	!	!	!	!	!	!	!	!	!	!	!	!	!	!	!	!	!	!	!	!	!	!	!	!	!	!	!	!	!	!	!LO:TX:t=P:problem= dodatkowe oznaczenie "crescendo" nad systemem	!	!	!	!	!
!	!	!	!	!	!	!	!	!	!	!	!	!	!	!	!	!	!	!	!	!	!	!	!	!	!	!	!	!	!	!	!	!LO:HP:t=crescendo	!	!	!	!
!	!	!	!	!	!	!	!	!	!	!	!	!	!	!	!	!	!	!	!	!	!	!	!	!	!	!LO:HP:t=crescendo	!	!	!	!	!	!	!	!	!	!
8BB-/L	8 3	.	8F/L	.	(8d-/L	.	(8f/L	.	.	.	.	.	.	.	.	.	.	.	.	.	8BB-/L	.	8B-/L	.	8B-/L	.	8BB-/L	.	8BB-/L	.	4.d-X/	<	4.f/	.	(8ff\L	.
8BB-/	.	.	8F/	.	8f/)	.	8b-/)	.	.	.	.	.	.	.	.	.	.	.	.	.	8BB-/	.	8B-/	.	8B-/	<	8BB-/	.	8BB-/	.	.	.	.	.	8bb-\)	.
8BB-/J	.	.	8F/J	.	8f'/J	.	8b-/J	.	.	.	.	.	.	.	.	.	.	.	.	.	8BB-/J	.	8B-/J	.	8b-/J	.	8BB-/J	.	8BB-/J	.	.	.	.	.	8bb-'\J	.
=6	=6	=6	=6	=6	=6	=6	=6	=6	=6	=6	=6	=6	=6	=6	=6	=6	=6	=6	=6	=6	=6	=6	=6	=6	=6	=6	=6	=6	=6	=6	=6	=6	=6	=6	=6	=6
!	!	!	!	!	!	!	!	!	!	!	!	!	!	!	!	!	!	!	!	!	!	!	!	!	!LO:TX:t=P:problem=3 kropki art.	!	!	!	!	!	!	!	!	!	!	!
!	!	!	!	!	!	!	!	!	!	!	!	!	!	!	!	!	!	!	!	!	!	!	!	!	!	!	!	!LO:HP:t=crescendo	!	!	!	!	!	!	!	!
8BB-/L	10	.	8F/L	.	(8f/L	.	(8b-\L	.	2.r	.	.	2.r	.	.	2.r	.	.	2.r	.	.	8BB-/L	.	8B-/L	.	8b-\L	.	8BB-/L	<	8BB-/L	.	4.f/	.	4.b-\	.	(8bb-\L	.
8BB-/	.	.	8F/	.	8b-/)	.	8dd-\)	.	.	.	.	.	.	.	.	.	.	.	.	.	8BB-/	.	8B-/	.	8b-\	.	8BB-/	.	8BB-/	.	.	.	.	.	8ddd-\)	.
8BB-/J	.	.	8F/J	.	8b-'/J	[	8dd-'\J	.	.	.	.	.	.	.	.	.	.	.	.	.	8BB-/J	.	8B-/J	.	8b-\J	.	8BB-/J	.	8BB-/J	.	.	.	.	.	8ddd-'\J	.
!LO:TX:t=P:problem=mixed beam	!	!	!	!	!	!	!	!	!	!	!	!	!	!	!	!	!	!	!	!	!	!	!	!	!LO:TX:t=P:problem=3 kropki art.	!	!LO:TX:t=P:problem=mixed beam	!	!LO:TX:t=P:problem=mixed beam	!	!	!	!	!	!	!
*Xtremolo	*	*	*	*	*	*	*	*	*	*	*	*	*	*	*	*	*	*	*	*	*	*	*	*	*	*	*Xtremolo	*	*Xtremolo	*	*	*	*	*	*	*
!	!	!	!	!	!	!	!	!	!	!	!	!	!	!	!	!	!	!	!	!	!	!	!	!	!	!	!LO:TX:t=P:problem= mixed beam	!	!	!	!	!	!	!	!	!
8BB-\L	5_	.	8F/L	.	(8b-\L	.	(8dd-\L	.	.	.	.	.	.	.	.	.	.	.	.	.	8BB-/L	.	8B-/L	.	8b-\L	.	8BB-\L	.	8BB-\L	.	4.b-\	.	4.dd-X\	.	(8ddd-\L	.
8B-\	.	.	8F/	.	8dd-\)	.	8ff\)	.	.	.	.	.	.	.	.	.	.	.	.	.	8BB-/	.	8B-/	.	8b-\	.	8BB-\	.	8BB-\	.	.	.	.	.	8fff\)	.
8B-\J	.	.	8F/J	[	8dd-'\J	.	8ff'\J	.	.	.	.	.	.	.	.	.	.	.	.	.	8BB-/J	.	8B-/J	[	8b-\J	.	8B-\J	.	8B-\J	.	.	.	.	.	8fff'\J	.
*	*	*	*	*	*	*	*	*	*	*	*	*	*	*	*	*	*	*	*	*	*	*	*	*	*Xtremolo	*	*	*	*	*	*	*	*	*	*	*
*	*	*	*	*	*	*	*	*	*	*	*	*	*	*	*	*	*	*	*	*	*	*	*Xtremolo	*	*	*	*	*	*	*	*	*	*	*	*	*
*	*	*	*	*	*	*	*	*	*	*	*	*	*	*	*	*	*	*	*	*	*Xtremolo	*	*	*	*	*	*	*	*	*	*	*	*	*	*	*
!LO:LB:g=original	!	!	!	!	!	!	!	!	!	!	!	!	!	!	!	!	!	!	!	!	!	!	!	!	!	!	!	!	!	!	!	!	!	!	!LO:LB:g=original	!
=7	=7	=7	=7	=7	=7	=7	=7	=7	=7	=7	=7	=7	=7	=7	=7	=7	=7	=7	=7	=7	=7	=7	=7	=7	=7	=7	=7	=7	=7	=7	=7	=7	=7	=7	=7	=7
!	!	!	!	!	!	!	!	!	!	!	!	!	!	!	!	!	!	!	!	!	!LO:TX:t=P:problem=linia falista do końca taktu	!	!	!	!	!	!	!	!	!	!	!	!	!	!	!
!	!	!	!	!	!	!	!	!	!	!	!	!	!	!	!	!	!LO:DY:b	!	!	!LO:DY:b	!	!	!	!	!	!	!	!	!	!	!	!	!	!	!	!
!	!	!	!	!	!	!	!	!	!	!	!	!	!	!LO:DY:b	!	!	!	!	!	!	!	!	!	!	!	!	!	!	!	!	!	!	!	!	!	!
!	!	!	!	!	!	!	!	!	!	!	!	!	!	!LO:DY:t=f.	!	!	!	!	!	!	!	!	!	!	!	!	!	!	!	!	!	!	!	!	!	!
!	!	!	!	!	!	!	!	!	!	!	!LO:DY:b	!	!	!	!	!	!	!	!	!	!	!	!	!	!	!	!	!	!	!	!	!	!	!	!	!
!	!	!	!	!	!	!LO:DY:t=f.	!	!	!	!	!	!	!	!	!	!	!	!	!	!	!	!	!	!	!	!	!	!	!	!	!	!	!	!	!	!
!	!	!	!	!LO:DY:t=f.	!	!	!	!	!	!	!	!	!	!	!	!	!	!	!	!	!	!	!	!	!	!	!	!	!	!	!	!	!	!	!	!
!	!	!	!	!	!	!	!	!	!	!	!	!	!	!	!	!	!	!	!	!	!	!LO:DY:t=f.	!	!	!	!	!	!	!	!	!	!	!	!LO:DY:t=f.	!	!
4.c\	4_ 3	f	4.An/	f	(8ee-\L	f	(8ff\L	f	4.c\	A-	f	4.e-\	A-	f	4.an\	A-	f	4.ff\	A-	f	2.FFT/	f	4.F/	f	4.f/	f	4.c\	f	4.e-\	f	4.cc\	f	4.ee-\	f	(8fff\L	f
.	.	.	.	.	8f\)	.	8an\)	.	.	.	.	.	.	.	.	.	.	.	.	.	.	.	.	.	.	.	.	.	.	.	.	.	.	.	8aan\)	.
.	.	.	.	.	8f'\J	.	8a'\J	.	.	.	.	.	.	.	.	.	.	.	.	.	.	.	.	.	.	.	.	.	.	.	.	.	.	.	8aa'\J	.
4.B-\	x 3	.	4.B-/	.	(8dd-\L	.	(8ff\L	.	4.B-\	-gnus	.	4.d-\	-gnus	.	4.b-\	-gnus	.	4.ff\	-gnus	.	.	.	4.F/	.	4.f/	.	4.B-\	.	4.d-X\	.	4.b-\	.	4.dd-X\	.	(8fff\L	.
.	.	.	.	.	8f\)	.	8b-\)	.	.	.	.	.	.	.	.	.	.	.	.	.	.	.	.	.	.	.	.	.	.	.	.	.	.	.	8bb-\)	.
.	.	.	.	.	8f'\J	.	8b-'\J	.	.	.	.	.	.	.	.	.	.	.	.	.	.	.	.	.	.	.	.	.	.	.	.	.	.	.	8bb-'\J	.
!	!	!	!LO:LB:g=original	!	!	!	!	!	!	!	!	!	!	!	!	!	!	!	!	!	!	!	!	!	!	!	!	!	!	!	!	!	!	!	!	!
!	!	!	!	!	!	!	!	!	!	!	!	!	!	!	!	!	!	!	!	!	!	!	!	!	!	!	!LO:LB:g=original	!	!	!	!LO:LB:g=original	!	!	!	!	!
=8	=8	=8	=8	=8	=8	=8	=8	=8	=8	=8	=8	=8	=8	=8	=8	=8	=8	=8	=8	=8	=8	=8	=8	=8	=8	=8	=8	=8	=8	=8	=8	=8	=8	=8	=8	=8
!	!	!	!	!	!	!	!	!	!	!	!	!	!	!	!	!	!	!	!	!	!LO:TX:t=P:problem=linia falista do końca taktu	!	!	!	!	!	!	!	!	!	!	!	!	!	!	!
[4.An\	7_ 3_	.	4.c\	.	[4.cc\	.	(4gg-X\	.	4.An\	De-	.	4.c\	De-	.	4.f\	De-	.	(4gg-X\	De-	.	4.FFT/	.	[4.F/	.	[4.f/	.	[4.An\	.	4.c\	.	4.a\	.	[4.cc\	.	4ggg-\	.
.	.	.	.	.	.	.	8ff\)	.	.	.	.	.	.	.	.	.	.	8ff\)	.	.	.	.	.	.	.	.	.	.	.	.	.	.	.	.	8fff\	.
4A\]	6 3	.	4c\	.	4cc\]	.	4ff\	.	4A\	-i	.	4c\	-i	.	4f\	-i	.	4ff\	-i	.	4.FF/	.	4F/]	.	4f/]	.	4A\]	.	4c\	.	4a\	.	4cc\]	.	4fff\	.
8r	.	.	8r	.	8r	.	8r	.	8r	.	.	8r	.	.	8r	.	.	8r	.	.	.	.	8r	.	8r	.	8r	.	8r	.	8r	.	8r	.	8r	.
*clefC4	*	*	*	*	*tremolo	*	*	*	*	*	*	*	*	*	*	*	*	*	*	*	*	*	*	*	*	*	*	*	*	*	*	*	*	*	*	*
!	!	!	!	!	!	!	!	!	!	!	!	!	!	!	!	!	!	!	!	!	!	!	!LO:LB:g=original	!	!	!	!	!	!	!	!	!	!LO:LB:g=original	!	!	!
=9	=9	=9	=9	=9	=9	=9	=9	=9	=9	=9	=9	=9	=9	=9	=9	=9	=9	=9	=9	=9	=9	=9	=9	=9	=9	=9	=9	=9	=9	=9	=9	=9	=9	=9	=9	=9
!LO:TX:a:i:t=Violonc&colon;	!	!	!	!	!	!	!	!	!LO:TX:a:t=1.	!	!	!	!	!	!	!	!	!	!	!	!LO:TX:a:t=1.	!	!LO:TX:a:t=1.	!	!LO:TX:a:t=1.	!	!	!	!	!	!LO:TX:a:t=1.	!	!LO:TX:a:t=1.	!	!LO:TX:a:t=1.	!
!	!	!	!	!	!	!	!	!	!	!	!	!	!	!	!	!	!LO:DY:b	!	!	!LO:DY:b	!	!	!	!	!	!	!	!	!	!	!	!	!	!	!	!
!	!	!	!	!	!	!	!	!	!	!	!	!	!	!LO:DY:b	!	!	!	!	!	!	!	!	!	!	!	!	!	!	!	!	!	!	!	!	!	!
4.e-\	.	.	4.F/	p	4.c/	p	(8f/L	p	2.r	.	.	4.e-\	A-	p	4.c/	A-	p	4.f/	A-	p	2.r	.	2.r	.	2.r	.	4.c\	p	4.e-\	p	2.r	.	2.r	.	2.r	.
.	.	.	.	.	.	.	8An/)	.	.	.	.	.	.	.	.	.	.	.	.	.	.	.	.	.	.	.	.	.	.	.	.	.	.	.	.	.
.	.	.	.	.	.	.	8A/J	.	.	.	.	.	.	.	.	.	.	.	.	.	.	.	.	.	.	.	.	.	.	.	.	.	.	.	.	.
4.d-\	.	.	4.F/	.	4.B-/	.	(8f/L	.	.	.	.	4.d-\	-gnus	.	4.B-/	-gnus	.	4.f/	-gnus	.	.	.	.	.	.	.	4.B-\	.	4.d-\	.	.	.	.	.	.	.
.	.	.	.	.	.	.	8B-/)	.	.	.	.	.	.	.	.	.	.	.	.	.	.	.	.	.	.	.	.	.	.	.	.	.	.	.	.	.
.	.	.	.	.	.	.	8B-'/J	.	.	.	.	.	.	.	.	.	.	.	.	.	.	.	.	.	.	.	.	.	.	.	.	.	.	.	.	.
!	!	!	!	!	!	!	!	!	!	!	!	!	!	!	!	!	!	!	!	!	!LO:LB:g=original	!	!	!	!LO:LB:g=original	!	!	!	!LO:LB:g=original	!	!	!	!	!	!	!
=10	=10	=10	=10	=10	=10	=10	=10	=10	=10	=10	=10	=10	=10	=10	=10	=10	=10	=10	=10	=10	=10	=10	=10	=10	=10	=10	=10	=10	=10	=10	=10	=10	=10	=10	=10	=10
!	!	!	!	!	!	!	!	!	!	!	!	!	!	!LO:DY:a	!	!	!	!	!	!	!	!	!	!	!	!	!	!	!	!LO:DY:a	!	!	!	!	!	!
4.c\	.	.	4.F/	.	4.An/	.	(4g-X/	.	4r	.	.	4.c\	De-	.	4.An/	De-	.	(4g-X/	De-	.	4r	.	4r	.	4r	.	4.An\	.	4.c\	.	4r	.	4r	.	4r	.
.	.	.	.	.	.	.	8f/)	.	8r	.	.	.	.	.	.	.	.	8f/)	.	.	8r	.	8r	.	8r	.	.	.	.	.	8r	.	8r	.	8r	.
*clefF4	*	*	*	*	*	*	*	*	*	*	*	*	*	*	*	*	*	*	*	*	*	*	*	*	*	*	*	*	*	*	*	*	*	*	*	*
!LO:TX:a:i:t=Basſi	!	!LO:DY:a	!	!LO:DY:a	!	!	!	!	!	!	!	!	!	!	!	!	!	!	!	!	!LO:TX:t=P:problem=linia falista przez 2 takty	!LO:DY:a	!	!LO:DY:a	!	!	!	!	!	!	!	!	!	!	!	!
!	!	!	!	!	!	!LO:DY:a	!	!	!	!	!	!	!	!	!	!	!	!	!	!	!	!	!	!	!	!	!	!	!	!	!	!	!	!	!	!
!	!	!	!	!LO:DY:a	!	!	!	!	!	!	!	!	!	!	!	!	!	!	!	!	!	!	!	!	!	!	!	!	!	!	!	!	!	!	!	!
!	!	!	!	!LO:TX:t=P:problem= pod systemem dodatkowo zapisane "crescendi"	!	!	!	!	!	!	!	!	!	!	!	!	!	!	!	!	!	!	!	!	!	!	!	!	!	!	!	!	!	!	!	!
!	!	!	!	!	!	!	!	!	!	!	!	!	!	!	!	!	!	!	!	!	!	!	!	!	!	!	!	!	!	!	!	!	!	!LO:HP:t=crescendo	!	!
!	!	!	!	!	!	!	!	!	!	!	!	!	!	!	!	!	!	!	!	!	!	!	!	!	!	!	!	!	!	!LO:HP:t=crescendo	!	!	!	!	!	!
!	!	!	!	!	!	!	!	!	!	!	!	!	!	!	!	!	!	!	!	!	!LO:TX:t=P:problem= dodatkowy znak crescendo zapisany nad systemem	!	!	!	!	!	!	!LO:DY:a	!LO:TX:t=P:problem= dodatkowy znak crescendo zapisany nad systemem	!	!	!	!	!	!	!
!LO:TX:t=P:problem= dodatkowy znak crescendo zapisany nad systemem	!	!LO:HP:t=cres&colon;	!	!	!	!	!	!	!	!	!	!	!	!	!	!	!	!	!	!	!	!LO:HP:t=crescendo	!	!	!	!	!	!	!	!	!	!	!	!	!	!
4.FF/	5 4	<	4.An/	<	4.c/	<	(8f/L	.	4r	.	.	4c\	-i	<	4A/	-i	.	4f/	-i	.	4.FFT/	<	4.F/	<	[4.f/	p	4A\	<	4.c\	<	4.a\	p	4.cc\	<	4.ccc\	p
.	.	.	.	.	.	.	8an/)	.	.	.	.	.	.	.	.	.	.	.	.	.	.	.	.	.	.	.	.	.	.	.	.	.	.	.	.	.
.	.	.	.	.	.	.	8cc/J	.	8F\	qui	.	8An\	qui	.	8f\	qui	.	8cc\	qui	<	.	.	.	.	.	.	8r	.	.	.	.	.	.	.	.	.
!	!	!	!	!	!	!	!	!	!	!	!	!	!	!	!LO:LB:g=original	!	!	!	!	!	!	!	!	!	!	!	!	!	!	!	!	!	!	!	!	!
!	!	!	!	!	!	!	!LO:LB:g=original	!	!	!	!	!	!	!	!	!	!	!	!	!	!	!	!	!	!	!	!	!	!	!	!	!	!	!	!	!
=11	=11	=11	=11	=11	=11	=11	=11	=11	=11	=11	=11	=11	=11	=11	=11	=11	=11	=11	=11	=11	=11	=11	=11	=11	=11	=11	=11	=11	=11	=11	=11	=11	=11	=11	=11	=11
!	!	!	!	!	!	!	!	!	!	!	!	!	!	!	!	!	!	!	!	!	!	!	!	!	!	!LO:DY:a	!	!	!	!	!	!LO:DY:a	!	!	!	!
2.FF/	6 4	.	2.B-/	.	2.d-X/	.	(8f/L	.	2.F\	tol-	<[	2.B-\	tol-	.	2.f\	tol-	.	2.dd-\	tol-	.	2.FF/	.	2.F/	.	2.f/]	<	2.B-\	.	2.d-\	.	2.b-\	<	2.dd-X\	.	2.fff\	.
!	!	!	!	!	!	!	!	!	!	!	!	!	!	!	!	!	!	!	!	!	!	!	!	!	!LO:TX:b:t=mr&colon;	!	!	!	!	!	!	!	!	!	!	!
.	.	.	.	.	.	.	8b-/	.	.	.	.	.	.	.	.	.	.	.	.	.	.	.	.	.	.	.	.	.	.	.	.	.	.	.	.	.
.	.	.	.	.	.	.	8dd-/J)	.	.	.	.	.	.	.	.	.	.	.	.	.	.	.	.	.	.	.	.	.	.	.	.	.	.	.	.	.
.	.	.	.	.	.	.	(8f/L	.	.	.	.	.	.	.	.	.	.	.	.	.	.	.	.	.	.	.	.	.	.	.	.	.	.	.	.	.
.	.	.	.	.	.	.	8b-/	.	.	.	.	.	.	.	.	.	.	.	.	.	.	.	.	.	.	.	.	.	.	.	.	.	.	.	.	.
.	.	.	.	[	.	.	8dd-/J)	.	.	.	.	.	.	[	.	.	.	.	.	[	.	.	.	.	.	[	.	.	.	.	.	.	.	.	.	.
!	!	!	!	!	!	!	!	!	!	!	!	!	!	!	!	!	!	!LO:LB:g=original	!	!	!	!	!	!	!	!	!	!	!	!	!	!	!	!	!	!
!	!	!	!	!	!	!	!	!	!	!	!	!LO:LB:g=original	!	!	!	!	!	!	!	!	!	!	!	!	!	!	!	!	!	!	!	!	!	!	!	!
=12	=12	=12	=12	=12	=12	=12	=12	=12	=12	=12	=12	=12	=12	=12	=12	=12	=12	=12	=12	=12	=12	=12	=12	=12	=12	=12	=12	=12	=12	=12	=12	=12	=12	=12	=12	=12
4.FF/	5_ n_	.	4.An/	.	4.c/	[	(8f/L	.	4F\	-lis	.	4An\	-lis	.	4f\	-lis	.	4cc\	-lis	.	4FF/	.	4.F/	[	4.f/	.	4.An\	.	4.c\	.	4.a\	.	4.cc\	.	4.ccc\	.
.	.	.	.	.	.	.	8an/	.	.	.	.	.	.	.	.	.	.	.	.	.	.	.	.	.	.	.	.	.	.	.	.	.	.	.	.	.
.	.	.	.	.	.	.	8cc/J)	.	8FF/	pec-	.	8A\	pec-	.	8f\	pec-	.	8cc\	pec-	.	8r	.	.	.	.	.	.	[	.	.	.	[	.	.	.	.
!	!	!	!	!	!	!	!	!	!	!	!	!	!	!	!	!	!	!	!	!LO:DY:b	!	!	!	!	!	!	!	!	!	!	!	!	!	!	!	!
!	!	!	!	!	!	!	!	!	!	!	!	!	!	!	!	!	!LO:DY:b	!	!	!	!	!	!	!	!	!	!	!	!	!	!	!	!	!	!	!
!	!	!	!	!	!	!	!	!	!LO:LB:g=original	!	!	!	!	!	!	!	!	!	!	!	!	!	!	!	!	!	!	!	!	!	!	!	!	!	!	!
!	!	!	!	!	!	!	!	!	!	!	!LO:DY:b	!	!	!	!	!	!	!	!	!	!	!	!	!	!	!	!	!	!	!	!	!	!	!	!	!
4.FF/	.	p	4.A/	p	4.c/	p	(8f/L	p	4FF/	-ca-	p	4A\	-ca-	.	4f\	-ca-	p	4cc\	-ca-	p	4.r	.	4r	.	4r	.	4r	.	4r	.	4r	.	4r	.	4r	.
.	.	.	.	.	.	.	8a/	.	.	.	.	.	.	.	.	.	.	.	.	.	.	.	.	.	.	.	.	.	.	.	.	.	.	.	.	.
.	.	.	.	.	.	.	8cc/J)	.	8FF/	-ta	.	8A\	-ta	.	8f\	-ta	.	8cc\	-ta	.	.	.	8r	.	8r	.	8r	.	8r	.	8r	.	8r	.	8r	.
!	!	!	!	!	!LO:LB:g=original	!	!	!	!	!	!	!	!	!	!	!	!	!	!	!	!	!	!	!	!	!	!	!	!	!	!	!	!	!	!	!
=13	=13	=13	=13	=13	=13	=13	=13	=13	=13	=13	=13	=13	=13	=13	=13	=13	=13	=13	=13	=13	=13	=13	=13	=13	=13	=13	=13	=13	=13	=13	=13	=13	=13	=13	=13	=13
!	!	!	!	!	!	!	!	!	!	!	!	!	!	!	!	!	!	!	!	!	!LO:TX:a:t=25.	!	!LO:TX:a:t=31.	!	!LO:TX:a:t=31.	!	!LO:TX:a:t=3.	!	!LO:TX:a:t=3.	!	!LO:TX:a:t=3.	!	!LO:TX:a:t=3.	!	!LO:TX:a:t=3.	!
[2.FF/	6 4	.	2.B-/	.	2.d-/	.	(8f/L	.	2.FF/	mun-	.	2.B-\	mun-	.	2.f\	mun-	.	2.dd-\	mun-	.	2.r	.	2.r	.	2.r	.	2.r	.	2.r	.	2.r	.	2.r	.	2.r	.
.	.	.	.	.	.	.	8b-/	.	.	.	.	.	.	.	.	.	.	.	.	.	.	.	.	.	.	.	.	.	.	.	.	.	.	.	.	.
.	.	.	.	.	.	.	8dd-/J)	.	.	.	.	.	.	.	.	.	.	.	.	.	.	.	.	.	.	.	.	.	.	.	.	.	.	.	.	.
.	.	.	.	.	.	.	(8f/L	.	.	.	.	.	.	.	.	.	.	.	.	.	.	.	.	.	.	.	.	.	.	.	.	.	.	.	.	.
.	.	.	.	.	.	.	8b-/	.	.	.	.	.	.	.	.	.	.	.	.	.	.	.	.	.	.	.	.	.	.	.	.	.	.	.	.	.
.	.	.	.	.	.	.	8dd-/J)	.	.	.	.	.	.	.	.	.	.	.	.	.	.	.	.	.	.	.	.	.	.	.	.	.	.	.	.	.
=14	=14	=14	=14	=14	=14	=14	=14	=14	=14	=14	=14	=14	=14	=14	=14	=14	=14	=14	=14	=14	=14	=14	=14	=14	=14	=14	=14	=14	=14	=14	=14	=14	=14	=14	=14	=14
2.FF/_	5 4	.	2.An/	.	2.c/	.	(8cc/L	.	4FF/	-di	.	4An\	-di	.	4f\	-di	.	4cc\	-di	.	2.r	.	2.r	.	2.r	.	2.r	.	2.r	.	2.r	.	2.r	.	2.r	.
.	.	.	.	.	.	.	8an/	<	.	.	.	.	.	.	.	.	.	.	.	.	.	.	.	.	.	.	.	.	.	.	.	.	.	.	.	.
.	.	.	.	.	.	.	8f/J)	.	8r	.	.	8r	.	.	8r	.	.	8r	.	.	.	.	.	.	.	.	.	.	.	.	.	.	.	.	.	.
!	!	!	!	!	!	!	!LO:TX:t=P:problem=3 kropki art.	!	!	!	!	!	!	!	!	!	!	!	!	!	!	!	!	!	!	!	!	!	!	!	!	!	!	!	!	!
*	*	*	*	*	*	*	*tremolo	*	*	*	*	*	*	*	*	*	*	*	*	*	*	*	*	*	*	*	*	*	*	*	*	*	*	*	*	*
.	.	.	.	.	.	.	8f'/L	.	4FF/	mi-	.	4A\	mi-	.	4c\	mi-	.	4f/	mi-	.	.	.	.	.	.	.	.	.	.	.	.	.	.	.	.	.
.	.	.	.	.	.	.	8f'/	.	.	.	.	.	.	.	.	.	.	.	.	.	.	.	.	.	.	.	.	.	.	.	.	.	.	.	.	.
.	.	.	.	.	.	.	8f'/J	.	8FF/	-se-	.	8A\	-se-	.	8c\	-se-	.	8f/	-se-	.	.	.	.	.	.	.	.	.	.	.	.	.	.	.	.	.
=15	=15	=15	=15	=15	=15	=15	=15	=15	=15	=15	=15	=15	=15	=15	=15	=15	=15	=15	=15	=15	=15	=15	=15	=15	=15	=15	=15	=15	=15	=15	=15	=15	=15	=15	=15	=15
2.FF/]	6 4	.	2.B-/	.	2.d-/	.	8f`/L	.	4FF/	-re-	.	4B-\	-re-	.	4d-X\	-re-	.	4f/	-re-	.	2.r	.	2.r	.	2.r	.	2.r	.	2.r	.	2.r	.	2.r	.	2.r	.
.	.	.	.	.	.	.	8f`/	.	.	.	.	.	.	.	.	.	.	.	.	.	.	.	.	.	.	.	.	.	.	.	.	.	.	.	.	.
.	.	.	.	.	.	.	8f`/J	.	8FF/	-re	.	8B-\	-re	.	8d-\	-re	.	8f/	-re	.	.	.	.	.	.	.	.	.	.	.	.	.	.	.	.	.
.	.	.	.	.	.	.	8f`/L	[	4.FF/	no-	.	4.B-\	no-	.	4.d-\	no-	.	4.f/	no-	.	.	.	.	.	.	.	.	.	.	.	.	.	.	.	.	.
.	.	.	.	.	.	.	8f`/	.	.	.	.	.	.	.	.	.	.	.	.	.	.	.	.	.	.	.	.	.	.	.	.	.	.	.	.	.
.	.	.	.	.	.	.	8f`/J	.	.	.	.	.	.	.	.	.	.	.	.	.	.	.	.	.	.	.	.	.	.	.	.	.	.	.	.	.
=16	=16	=16	=16	=16	=16	=16	=16	=16	=16	=16	=16	=16	=16	=16	=16	=16	=16	=16	=16	=16	=16	=16	=16	=16	=16	=16	=16	=16	=16	=16	=16	=16	=16	=16	=16	=16
!	!	!	!	!	!LO:TX:t=P:problem=3 kropki art.	!LO:DY:a	!	!	!	!	!	!	!	!	!	!	!	!	!	!	!	!	!	!	!	!	!	!	!	!	!	!	!	!	!	!
!	!	!LO:DY:b	!	!LO:DY:t=cresc&colon;	!	!LO:DY:a	!	!	!	!	!	!	!	!	!	!	!	!	!	!	!	!	!	!	!	!	!	!	!	!	!	!	!	!	!	!
*	*	*	*	*	*	*	*	*	*	*	*	*	*	*	*	*	*	*	*	*	*	*	*	*	*	*	*	*	*tremolo	*	*Xtremolo	*	*tremolo	*	*tremolo	*
!LO:TX:t=P:problem= dodatkowy znak crescendo zapisany nad systemem	!	!LO:HP:t=cres.	!	!	!	!	!	!	!	!	!	!	!	!	!	!	!	!	!	!	!	!	!	!	!	!	!	!	!	!	!	!	!	!	!	!
8FF/L	5_ n_	<	8An^/L	f	8c'/L	<	8f`/L	.	4FF/	-bis	.	4An\	-bis	.	4c\	-bis	.	4f/	-bis	.	2.r	.	2.r	.	2.r	.	4r	.	4r	.	4r	.	4r	.	4r	.
8FF/	.	.	8An^/	.	8c'/	.	8f/	.	.	.	.	.	.	.	.	.	.	.	.	.	.	.	.	.	.	.	.	.	.	.	.	.	.	.	.	.
8FF/J	.	.	8An^/J	.	8c'/J	.	8f`/J	.	8r	.	.	8r	.	.	8r	.	.	8r	.	.	.	.	.	.	.	.	8r	.	8r	.	8r	p	8r	.	8r	.
!	!	!	!	!	!	!	!	!	!	!	!	!	!	!	!	!	!	!	!	!	!	!	!	!	!	!	!	!	!	!	!	!	!	!	!LO:TX:t=P:problem=zły pion harmoniczny	!
!	!	!	!	!	!LO:TX:t=P:problem=3 kropki art.	!	!	!	!	!	!	!	!	!	!	!	!	!	!	!	!	!	!	!	!	!	!	!	!	!	!	!	!LO:TX:t=P:problem=3 kropki art.	!	!LO:TX:t=P:problem=3 kropki art.	!
!	!	!	!	!	!	!	!	!	!	!	!	!	!	!	!	!	!	!	!	!	!	!	!	!	!	!	!	!	!	!	!	!	!	!	!	!LO:HP:t=crescendo
!	!	!	!	!	!	!	!	!	!	!	!	!	!	!	!	!	!	!	!	!	!	!	!	!	!	!	!	!	!	!LO:DY:t=f.	!	!	!	!	!	!
*tremolo	*	*	*	*	*	*	*	*	*	*	*	*	*	*	*	*	*	*	*	*	*	*	*	*	*	*	*tremolo	*	*	*	*	*	*	*	*	*
8FF/L	.	.	8A/L	.	8c'/L	.	8f`/L	.	4r	.	.	4r	.	.	4r	.	.	4r	.	.	.	.	.	.	.	.	8A-X\L	f	8d-X\L	f	8dd-X\L	.	8ff'\L	p	8ff'\L	<
!	!	!	!	!	!	!	!	!	!	!	!	!	!	!	!	!	!	!	!	!	!	!	!	!	!	!	!	!	!	!	!	!LO:HP:t=crescendo	!	!	!	!
8FF/	.	.	8A/	.	8c'/	.	8f`/	.	.	.	.	.	.	.	.	.	.	.	.	.	.	.	.	.	.	.	8A-X\	.	8d-X\	.	8dd-\	<	8ff'\	.	8ff'\	.
8FF/J	.	.	8A/J	.	8c'/J	[	8f`/J	.	8r	.	.	8r	.	.	8r	.	.	8r	.	.	.	.	.	.	.	.	8A-X\J	.	8d-X\J	.	8dd-\J	.	8ff'\J	.	8ff'\J	.
!LO:LB:g=original	!	!	!	!	!	!	!	!	!	!	!	!	!	!	!	!	!	!	!	!	!	!	!	!	!	!	!	!	!	!	!	!	!	!	!	!
=17	=17	=17	=17	=17	=17	=17	=17	=17	=17	=17	=17	=17	=17	=17	=17	=17	=17	=17	=17	=17	=17	=17	=17	=17	=17	=17	=17	=17	=17	=17	=17	=17	=17	=17	=17	=17
!	!	!	!	!	!LO:TX:t=P:problem=3 kropki art.	!	!	!	!LO:TX:a:t=7.	!	!	!LO:TX:a:t=7.	!	!	!LO:TX:a:t=7.	!	!	!LO:TX:a:t=7	!	!	!	!	!	!	!	!	!	!	!LO:TX:t=P:problem=3 kropki art.	!	!LO:TX:t=P:problem=3 kropki art.	!	!	!	!LO:TX:t=P:problem=3 kropki art.	!
!	!	!	!	!LO:DY:t=f.	!	!	!	!	!	!	!	!	!	!	!	!	!	!	!	!	!	!	!	!	!	!	!	!	!	!	!	!	!	!LO:HP:t=crescendo	!	!
*Xtremolo	*	*	*	*	*	*	*	*	*	*	*	*	*	*	*	*	*	*	*	*	*	*	*	*	*	*	*	*	*	*	*tremolo	*	*	*	*	*
8AA-/L	7_ 5_ 3_	f	8A-X/ 8e-L	f	8c'/ 8e-L	f	8g-X`/L	.	2.r	.	.	2.r	.	.	2.r	.	.	2.r	.	.	2.r	.	2.r	.	2.r	.	8c\L	.	8e-'\L	<	8ee-'\L	.	8gg-X\L	<	8gg-'\L	.
8AA-/	.	.	8A-X/ 8e-	.	8c'/ 8e-	.	8g-X`/	.	.	.	.	.	.	.	.	.	.	.	.	.	.	.	.	.	.	.	8c\	.	8e-'\	.	8ee-'\	.	8gg-X\	.	8gg-'\	.
8AA-/J	.	.	8A-X/ 8e-J	.	8c'/ 8e-J	.	8g-X`/J	.	.	.	.	.	.	.	.	.	.	.	.	.	.	.	.	.	.	.	8c\J	.	8e-'\J	.	8ee-'\J	.	8gg-X\J	.	8gg-'\J	.
!	!	!	!	!	!	!	!	!	!	!	!	!	!	!	!	!	!	!	!	!	!	!	!	!	!	!	!	!	!LO:TX:t=P:problem=3 kropki art.	!	!LO:TX:t=P:problem=3 kropki art.	!	!	!	!LO:TX:t=P:problem=3 kropki art.	!
*tremolo	*	*	*	*	*	*	*	*	*	*	*	*	*	*	*	*	*	*	*	*	*	*	*	*	*	*	*	*	*	*	*	*	*	*	*	*
8AA-/L	.	.	8A-/ 8e-L	.	8c'/ 8e-L	.	8A-X`/ 8g-L	.	.	.	.	.	.	.	.	.	.	.	.	.	.	.	.	.	.	.	8c\L	.	8e-'\L	.	8ee-'\L	.	8gg-\L	.	8gg-'\L	.
8AA-/	.	.	8A-/ 8e-	.	8c'/ 8e-	.	8A-X`/ 8g-	.	.	.	.	.	.	.	.	.	.	.	.	.	.	.	.	.	.	.	8c\	.	8e-'\	.	8ee-'\	.	8gg-\	.	8gg-'\	.
8AA-/J	.	.	8A-/ 8e-J	.	8c'/ 8e-J	.	8A-X`/ 8g-J	.	.	.	.	.	.	.	.	.	.	.	.	.	.	.	.	.	.	.	8c\J	.	8e-'\J	[	8ee-'\J	.	8gg-\J	.	8gg-'\J	.
!	!	!	!	!	!	!	!	!	!	!	!	!	!	!	!	!	!	!	!	!	!	!	!	!	!	!	!	!	!	!	!	!	!	!	!LO:LB:g=original	!
=18	=18	=18	=18	=18	=18	=18	=18	=18	=18	=18	=18	=18	=18	=18	=18	=18	=18	=18	=18	=18	=18	=18	=18	=18	=18	=18	=18	=18	=18	=18	=18	=18	=18	=18	=18	=18
!LO:TX:a:t=Tasto	!	!	!	!	!	!	!	!	!	!	!	!	!	!	!	!	!	!	!	!	!	!	!	!	!	!	!	!	!	!	!	!	!	!	!	!
*	*	*	*	*	*Xtremolo	*	*	*	*	*	*	*	*	*	*	*	*	*	*	*	*	*	*	*	*	*	*	*	*	*	*	*	*	*	*	*
8D-'\L	.	p	4.d-X\	p	8d-/L	p	8d-`/L	p	2.r	.	.	2.r	.	.	2.r	.	.	2.r	.	.	2.r	.	2.r	.	2.r	.	8d-\	.	8d-\	.	8dd-X\	.	8ff\	.	8ff\	.
8D-'\	.	.	.	.	8d-/	.	8d-`/	.	.	.	.	.	.	.	.	.	.	.	.	.	.	.	.	.	.	.	8r	.	8r	.	8r	.	8r	.	8r	.
8D-'\J	.	.	.	.	8d-/J	.	8d-`/J	.	.	.	.	.	.	.	.	.	.	.	.	.	.	.	.	.	.	.	8r	p	8r	.	8r	.	8r	p	8r	.
.	.	.	.	.	(16qqd-/LL	sf	(16qqd-/LL	sf	.	.	.	.	.	.	.	.	.	.	.	.	.	.	.	.	.	.	.	.	.	.	.	.	.	.	.	.
.	.	.	.	.	16qqe-/JJ	.	16qqe-/JJ	.	.	.	.	.	.	.	.	.	.	.	.	.	.	.	.	.	.	.	.	.	.	.	.	.	.	.	.	.
*Xtremolo	*	*	*	*	*	*	*	*	*	*	*	*	*	*	*	*	*	*	*	*	*	*	*	*	*	*	*Xtremolo	*	*Xtremolo	*	*	*	*Xtremolo	*	*Xtremolo	*
!	!	!	!	!	!	!	!	!	!	!	!	!	!	!	!	!	!	!	!	!	!	!	!	!	!	!	!	!	!	!	!	!	!	!LO:DY:t=sf.	!	!
!	!	!	!	!	!	!	!	!	!	!	!	!	!	!	!	!	!	!	!	!	!	!	!	!	!	!	!	!	!	!LO:DY:t=sf.	!	!	!	!	!	!
8D-^<\L	.	.	4.d-^\	sf	8.f^/L)	.	8.f^</L)	.	.	.	.	.	.	.	.	.	.	.	.	.	.	.	.	.	.	.	8D-X^<\L	.	8D-X^<\L	sf	8d-X^</L	sf	8dd-X^<\L	sf	8dd-X^\L	sf
8D-\	.	.	.	.	.	.	.	.	.	.	.	.	.	.	.	.	.	.	.	.	.	.	.	.	.	.	8D-\	.	8D-\	p	8d-X^</	.	8dd-\	.	8dd-\	.
.	.	.	.	.	16e-/K	.	16e-/K	.	.	.	.	.	.	.	.	.	.	.	.	.	.	.	.	.	.	.	.	.	.	.	.	.	.	.	.	.
8D-\J	.	.	.	.	8d-/J	.	8d-/J	.	.	.	.	.	.	.	.	.	.	.	.	.	.	.	.	.	.	.	8D-\J	.	8D-\J	.	8d-X^</J	.	8dd-\J	.	8dd-\J	.
!	!	!	!	!	!	!	!LO:LB:g=original	!	!	!	!	!	!	!	!	!	!	!	!	!	!	!	!	!	!	!	!	!	!	!	!	!	!	!	!	!
!	!	!	!LO:LB:g=original	!	!	!	!	!	!	!	!	!	!	!	!	!	!	!	!	!	!	!	!	!	!	!	!	!	!	!	!	!	!	!	!	!
!	!	!	!	!	!	!	!	!	!	!	!	!	!	!	!	!	!	!	!	!	!	!	!	!	!	!	!LO:LB:g=original	!	!	!	!LO:LB:g=original	!	!	!	!	!
=19	=19	=19	=19	=19	=19	=19	=19	=19	=19	=19	=19	=19	=19	=19	=19	=19	=19	=19	=19	=19	=19	=19	=19	=19	=19	=19	=19	=19	=19	=19	=19	=19	=19	=19	=19	=19
!	!	!	!	!	!LO:TX:t=P:problem=3 kropki art.	!	!LO:TX:t=P:problem=3 kropki art.	!	!	!	!	!	!	!	!	!	!	!	!	!	!	!	!	!	!	!	!	!	!	!	!	!	!	!	!	!
*tremolo	*	*	*	*	*tremolo	*	*	*	*	*	*	*	*	*	*	*	*	*	*	*	*	*	*	*	*	*	*tremolo	*	*tremolo	*	*	*	*tremolo	*	*tremolo	*
8D-'\L	.	.	4.d-\	.	8d-'/L	.	8d-'/L	.	2.r	.	.	2.r	.	.	2.r	.	.	2.r	.	.	2.r	.	2.r	.	2.r	.	4r	.	4r	.	4r	.	4r	.	4r	.
8D-'\	.	.	.	.	8d-'/	.	8d-'/	.	.	.	.	.	.	.	.	.	.	.	.	.	.	.	.	.	.	.	.	.	.	.	.	.	.	.	.	.
8D-'\J	.	.	.	.	8d-'/J	.	8d-'/J	.	.	.	.	.	.	.	.	.	.	.	.	.	.	.	.	.	.	.	8r	.	8r	.	8r	.	8r	.	8r	.
.	.	.	.	.	(16qqd-/LL	sf	(16qqd-/LL	sf	.	.	.	.	.	.	.	.	.	.	.	.	.	.	.	.	.	.	.	.	.	.	.	.	.	.	.	.
!	!	!	!	!	!	!	!	!	!	!	!	!	!	!	!	!	!	!	!	!	!	!	!	!	!	!	!	!	!LO:TX:t=P:problem=3 kropki art.	!	!	!	!	!	!LO:TX:t=P:problem=3 kropki art.	!
.	.	.	.	.	16qqe-/JJ	.	16qqe-/JJ	.	.	.	.	.	.	.	.	.	.	.	.	.	.	.	.	.	.	.	.	.	.	.	.	.	.	.	.	.
!	!	!	!	!	!	!	!	!	!	!	!	!	!	!	!	!	!	!	!	!	!	!	!	!	!	!	!	!	!	!	!	!	!	!LO:DY:t=sf.	!	!LO:DY:t=sf.
!	!	!	!	!	!	!	!	!	!	!	!	!	!	!	!	!	!	!	!	!	!	!	!	!	!	!	!	!	!	!	!	!LO:DY:t=sf.	!	!	!	!
!	!	!	!	!	!	!	!	!	!	!	!	!	!	!	!	!	!	!	!	!	!	!	!	!	!	!	!	!	!	!LO:DY:t=sf.	!	!	!	!	!	!
*Xtremolo	*	*	*	*	*	*	*	*	*	*	*	*	*	*	*	*	*	*	*	*	*	*	*	*	*	*	*	*	*	*	*	*	*	*	*	*
8D-^\L	.	.	4.d-^\	sf	8.f^/L)	.	8.f^</L)	.	.	.	.	.	.	.	.	.	.	.	.	.	.	.	.	.	.	.	8D-^<\L	.	8D-^<'\L	sf	8d-^</L	sf	8dd-^<\L	sf	8dd-^'\L	sf
8D-\	.	.	.	.	.	.	.	.	.	.	.	.	.	.	.	.	.	.	.	.	.	.	.	.	.	.	8D-^<\	.	8D-^<'\	.	8d-^</	.	8dd-^<\	.	8dd-^'\	.
.	.	.	.	.	16e-/K	.	16e-/K	.	.	.	.	.	.	.	.	.	.	.	.	.	.	.	.	.	.	.	.	.	.	.	.	.	.	.	.	.
8D-\J	.	.	.	.	8d-/J	.	8d-/J	.	.	.	.	.	.	.	.	.	.	.	.	.	.	.	.	.	.	.	8D-^<\J	.	8D-^<'\J	.	8d-^</J	.	8dd-^<\J	.	8dd-^'\J	.
=20	=20	=20	=20	=20	=20	=20	=20	=20	=20	=20	=20	=20	=20	=20	=20	=20	=20	=20	=20	=20	=20	=20	=20	=20	=20	=20	=20	=20	=20	=20	=20	=20	=20	=20	=20	=20
!	!	!	!	!	!LO:TX:t=P:problem=3 kropki art.	!	!LO:TX:t=P:problem=3 kropki art.	!	!	!	!	!	!	!	!	!	!	!	!	!	!	!	!	!	!	!	!	!	!	!	!	!	!	!	!	!
*tremolo	*	*	*	*	*	*	*	*	*	*	*	*	*	*	*	*	*	*	*	*	*	*	*	*	*	*	*	*	*	*	*	*	*	*	*	*
8D-'\L	.	.	4.d-\	.	8e-'/L	.	8e-'/L	.	2.r	.	.	2.r	.	.	2.r	.	.	2.r	.	.	2.r	.	2.r	.	2.r	.	4r	.	4r	.	4r	.	4r	.	4r	.
8D-'\	.	.	.	.	8e-'/	.	8e-'/	.	.	.	.	.	.	.	.	.	.	.	.	.	.	.	.	.	.	.	.	.	.	.	.	.	.	.	.	.
8D-'\J	.	.	.	.	8e-'/J	.	8e-'/J	.	.	.	.	.	.	.	.	.	.	.	.	.	.	.	.	.	.	.	8r	.	8r	.	8r	.	8r	.	8r	.
.	.	.	.	.	(16qqe-/LL	sf	(16qqe-/LL	sf	.	.	.	.	.	.	.	.	.	.	.	.	.	.	.	.	.	.	.	.	.	.	.	.	.	.	.	.
!	!	!	!	!	!	!	!	!	!	!	!	!	!	!	!	!	!	!	!	!	!	!	!	!	!	!	!	!	!LO:TX:t=P:problem=3 kropki art.	!	!	!	!	!	!LO:TX:t=P:problem=3 kropki art.	!
.	.	.	.	.	16qqf/JJ	.	16qqf/JJ	.	.	.	.	.	.	.	.	.	.	.	.	.	.	.	.	.	.	.	.	.	.	.	.	.	.	.	.	.
!	!	!	!	!LO:DY:t=sf.	!	!	!	!	!	!	!	!	!	!	!	!	!	!	!	!	!	!	!	!	!	!	!	!	!	!	!	!	!	!	!	!
!	!	!	!	!	!	!	!	!	!	!	!	!	!	!	!	!	!	!	!	!	!	!	!	!	!	!	!	!	!	!	!	!	!	!LO:DY:t=sf.	!	!
*Xtremolo	*	*	*	*	*	*	*	*	*	*	*	*	*	*	*	*	*	*	*	*	*	*	*	*	*	*	*	*	*	*	*	*	*	*	*	*
8D-^\L	.	.	4.d-^\	sf	8.g-^/L)	.	8.g-^</L)	.	.	.	.	.	.	.	.	.	.	.	.	.	.	.	.	.	.	.	8D-^<\L	.	8D-^<'\L	sf	8d-^</L	sf	8dd-^<\L	sf	8dd-^'\L	sf
8D-\	.	.	.	.	.	.	.	.	.	.	.	.	.	.	.	.	.	.	.	.	.	.	.	.	.	.	8D-^<\	.	8D-^<'\	.	8d-^</	.	8dd-^<\	.	8dd-^'\	.
.	.	.	.	.	16f/K	.	16f/K	.	.	.	.	.	.	.	.	.	.	.	.	.	.	.	.	.	.	.	.	.	.	.	.	.	.	.	.	.
8D-\J	.	.	.	.	8e-/J	.	8e-/J	.	.	.	.	.	.	.	.	.	.	.	.	.	.	.	.	.	.	.	8D-^<\J	.	8D-^<'\J	.	8d-^</J	.	8dd-^<\J	.	8dd-^'\J	.
!	!	!	!	!	!LO:LB:g=original	!	!	!	!	!	!	!	!	!	!	!	!	!	!	!	!	!	!	!	!	!	!	!	!	!	!	!	!	!	!	!
=21	=21	=21	=21	=21	=21	=21	=21	=21	=21	=21	=21	=21	=21	=21	=21	=21	=21	=21	=21	=21	=21	=21	=21	=21	=21	=21	=21	=21	=21	=21	=21	=21	=21	=21	=21	=21
!	!	!	!	!	!LO:TX:t=P:problem=3 kropki art.	!	!LO:TX:t=P:problem=3 kropki art.	!	!	!	!	!	!	!	!	!	!	!	!	!	!	!	!	!	!	!	!	!	!	!	!	!	!	!	!	!
*tremolo	*	*	*	*	*	*	*	*	*	*	*	*	*	*	*	*	*	*	*	*	*	*	*	*	*	*	*	*	*	*	*	*	*	*	*	*
8D-'\L	.	.	4.d-\	.	8e-'/L	.	8e-'/L	.	2.r	.	.	2.r	.	.	2.r	.	.	2.r	.	.	2.r	.	2.r	.	2.r	.	4r	.	4r	.	4r	.	4r	.	4r	.
8D-'\	.	.	.	.	8e-'/	.	8e-'/	.	.	.	.	.	.	.	.	.	.	.	.	.	.	.	.	.	.	.	.	.	.	.	.	.	.	.	.	.
8D-'\J	.	.	.	.	8e-'/J	.	8e-'/J	.	.	.	.	.	.	.	.	.	.	.	.	.	.	.	.	.	.	.	8r	.	8r	.	8r	.	8r	.	8r	.
*Xtremolo	*	*	*	*	*	*	*Xtremolo	*	*	*	*	*	*	*	*	*	*	*	*	*	*	*	*	*	*	*	*	*	*	*	*	*	*	*	*	*
.	.	.	.	.	(16qqe-/LL	sf	(16qqe-/LL	sf	.	.	.	.	.	.	.	.	.	.	.	.	.	.	.	.	.	.	.	.	.	.	.	.	.	.	.	.
!	!	!	!	!	!	!	!	!	!	!	!	!	!	!	!	!	!	!	!	!	!	!	!	!	!	!	!	!	!LO:TX:t=P:problem=3 kropki art.	!	!	!	!	!	!LO:TX:t=P:problem=3 kropki art.	!
.	.	.	.	.	16qqf/JJ	.	16qqf/JJ	.	.	.	.	.	.	.	.	.	.	.	.	.	.	.	.	.	.	.	.	.	.	.	.	.	.	.	.	.
!	!	!	!	!LO:DY:t=sf.	!	!	!	!	!	!	!	!	!	!	!	!	!	!	!	!	!	!	!	!	!	!	!	!	!	!	!	!	!	!	!	!
!	!	!	!	!	!	!	!	!	!	!	!	!	!	!	!	!	!	!	!	!	!	!	!	!	!	!	!	!	!	!	!	!LO:DY:t=sf.	!	!	!	!
!	!	!	!	!	!	!	!	!	!	!	!	!	!	!	!	!	!	!	!	!	!	!	!	!	!	!	!	!	!	!LO:DY:t=sf.	!	!	!	!	!	!
8D-^\L	.	.	4.d-^\	sf	8.g-^/L)	.	8.g-^</L)	.	.	.	.	.	.	.	.	.	.	.	.	.	.	.	.	.	.	.	8D-^<\L	.	8D-^<'\L	sf	8d-^</L	sf	8dd-^<\L	sf	8dd-^'\L	sf
8D-\	.	.	.	.	.	.	.	.	.	.	.	.	.	.	.	.	.	.	.	.	.	.	.	.	.	.	8D-^<\	.	8D-^<'\	.	8d-^</	.	8dd-^<\	.	8dd-^'\	.
.	.	.	.	.	16f/K	.	16f/K	.	.	.	.	.	.	.	.	.	.	.	.	.	.	.	.	.	.	.	.	.	.	.	.	.	.	.	.	.
8D-\J	.	.	.	.	8e-/J	.	8e-/J	.	.	.	.	.	.	.	.	.	.	.	.	.	.	.	.	.	.	.	8D-^<\J	.	8D-^<'\J	.	8d-^</J	.	8dd-^<\J	.	8dd-^'\J	.
=22	=22	=22	=22	=22	=22	=22	=22	=22	=22	=22	=22	=22	=22	=22	=22	=22	=22	=22	=22	=22	=22	=22	=22	=22	=22	=22	=22	=22	=22	=22	=22	=22	=22	=22	=22	=22
*tremolo	*	*	*Xtremolo	*	*Xtremolo	*	*Xtremolo	*	*	*	*	*	*	*	*	*	*	*	*	*	*	*	*	*	*	*	*	*	*	*	*	*	*	*	*	*
!	!	!LO:DY:a	!	!	!	!LO:DY:a	!	!	!	!	!	!	!	!	!	!	!	!	!	!	!	!	!	!	!	!	!	!	!LO:TX:t=P:problem=3 kropki art.	!	!	!	!LO:TX:t=P:problem=3 kropki art.	!	!LO:TX:t=P:problem=3 kropki art.	!
!LO:TX:t=P:problem= dodatkowy znak crescendo zapisany nad systemem	!	!LO:HP:t=crescendo	!	!	!	!	!	!	!	!	!	!	!	!	!	!	!	!	!	!	!	!	!	!	!	!	!	!	!	!	!	!	!	!LO:DY:t=cres&colon;	!	!
8D-'\L	5 3	<	8d-X\L	.	(8d-/L	<	(8f/L	.	2.r	.	.	2.r	.	.	2.r	.	.	2.r	.	.	2.r	.	2.r	.	2.r	.	8D-\L	.	8F'\L	<	8a-\L	p	8dd-'\L	f	8dd-'\L	.
8D-'\	.	.	8d-\	.	8f/)	.	8a-/)	.	.	.	.	.	.	.	.	.	.	.	.	.	.	.	.	.	.	.	8D-\	.	8F'\	.	8a-\	.	8dd-'\	.	8dd-'\	.
8D-'\J	.	.	8d-\J	.	8f'/J	.	8a-'/J	.	.	.	.	.	.	.	.	.	.	.	.	.	.	.	.	.	.	.	8D-\J	.	8F'\J	.	8a-\J	.	8dd-'\J	.	8dd-'\J	.
!	!	!	!	!	!	!	!	!	!	!	!	!	!	!	!	!	!	!	!	!	!	!	!	!	!	!	!	!LO:DY:a	!LO:TX:t=P:problem=3 kropki art.	!	!	!LO:DY:a	!LO:TX:t=P:problem=3 kropki art.	!	!LO:TX:t=P:problem=3 kropki art.	!
!	!	!	!	!LO:DY:a	!	!	!	!LO:DY:t=crescendo	!	!	!	!	!	!	!	!	!	!	!	!	!	!	!	!	!	!	!	!	!	!	!	!	!	!	!	!
!	!	!	!	!	!	!	!	!	!	!	!	!	!	!	!	!	!	!	!	!	!	!	!	!	!	!	!	!	!	!	!	!	!	!	!	!LO:HP:t=crescendo
8D-\L	8 5	.	8d-\L 8f	<	(8f/L	.	(8a-/L	f	.	.	.	.	.	.	.	.	.	.	.	.	.	.	.	.	.	.	8D-\L	<	8F'\L	.	8a-\L	<	8dd-'\L	.	8dd-'\L	<
8D-\	.	.	8d-\ 8f	.	8a-/)	.	8dd-/)	.	.	.	.	.	.	.	.	.	.	.	.	.	.	.	.	.	.	.	8D-\	.	8F'\	.	8a-\	.	8dd-'\	.	8dd-'\	.
8D-\J	.	.	8d-\J 8f	.	8a-'/J	.	8dd-'/J	.	.	.	.	.	.	.	.	.	.	.	.	.	.	.	.	.	.	.	8D-\J	.	8F'\J	.	8a-\J	.	8dd-'\J	.	8dd-'\J	.
!	!	!	!	!	!	!	!	!	!	!	!	!	!	!	!	!	!	!	!	!	!	!	!	!	!	!	!	!	!	!	!	!	!LO:LB:g=original	!	!	!
=23	=23	=23	=23	=23	=23	=23	=23	=23	=23	=23	=23	=23	=23	=23	=23	=23	=23	=23	=23	=23	=23	=23	=23	=23	=23	=23	=23	=23	=23	=23	=23	=23	=23	=23	=23	=23
!	!	!	!	!	!	!	!	!	!	!	!	!	!	!	!	!	!	!	!	!	!	!	!	!	!	!	!	!	!	!	!	!	!LO:TX:t=P:problem=3 kropki art.	!	!	!
*	*	*	*tremolo	*	*	*	*	*	*	*	*	*	*	*	*	*	*	*	*	*	*	*	*	*	*	*	*Xtremolo	*	*Xtremolo	*	*	*	*	*	*Xtremolo	*
8D-\L	10 8	.	8d-X\ 8fL	.	(8a-\L	.	(8dd-\L	.	2.r	.	.	2.r	.	.	2.r	.	.	2.r	.	.	2.r	.	2.r	.	2.r	.	8D-\L	.	8F\L	.	8a-\L	.	8dd-'\L	.	(8dd-\L	.
*	*	*	*	*	*	*	*	*	*	*	*	*	*	*	*	*	*	*	*	*	*	*	*	*	*	*	*tremolo	*	*tremolo	*	*	*	*	*	*	*
8D-\	.	.	8d-X\ 8f	.	8dd-\)	.	8ff\)	.	.	.	.	.	.	.	.	.	.	.	.	.	.	.	.	.	.	.	8F\	.	8d-\	.	8a-\	.	8dd-'\	.	8ff\)	.
8D-\J	.	.	8d-X\ 8fJ	.	8dd-'\J	.	8ff\J	.	.	.	.	.	.	.	.	.	.	.	.	.	.	.	.	.	.	.	8F\J	.	8d-\J	.	8a-\J	.	8dd-'\J	.	8ff'\J	.
!	!	!	!	!	!	!	!	!	!	!	!	!	!	!	!	!	!	!	!	!	!	!	!	!	!	!	!	!	!LO:TX:t=P:problem=3 kropki art.	!	!	!	!LO:TX:t=P:problem=3 kropki art.	!	!	!
8D-\L	.	.	8d-\ 8fL	.	(8dd-\L	[	(8ff\L	.	.	.	.	.	.	.	.	.	.	.	.	.	.	.	.	.	.	.	8F\L	.	8d-'\L	.	8a-\L	.	8dd-'\L	.	(8ff\L	.
8D-\	.	.	8d-\ 8f	.	8ff\)	.	8aa-\)	.	.	.	.	.	.	.	.	.	.	.	.	.	.	.	.	.	.	.	8F\	.	8d-'\	.	8a-\	.	8dd-'\	.	8aa-\)	.
8d-\J	5	.	8d-\ 8fJ	[	8ff'\J	.	8aa-'\J	.	.	.	.	.	.	.	.	.	.	.	.	.	.	.	.	.	.	.	8F\J	[	8d-'\J	[	8a-\J	[	8dd-'\J	.	8aa-'\J	.
!	!	!	!	!	!	!	!	!	!	!	!	!	!	!	!LO:LB:g=original	!	!	!	!	!	!	!	!	!	!	!	!	!	!	!	!	!	!	!	!	!
!	!	!	!	!	!	!	!	!	!	!	!	!LO:LB:g=original	!	!	!	!	!	!	!	!	!	!	!	!	!	!	!	!	!	!	!	!	!	!	!	!
!	!	!	!	!	!	!	!	!	!LO:LB:g=original	!	!	!	!	!	!	!	!	!	!	!	!	!	!	!	!	!	!	!	!	!	!	!	!	!	!	!
!LO:LB:g=original	!	!	!	!	!	!	!	!	!	!	!	!	!	!	!	!	!	!	!	!	!	!	!	!	!	!	!	!	!LO:LB:g=original	!	!	!	!	!	!	!
=24	=24	=24	=24	=24	=24	=24	=24	=24	=24	=24	=24	=24	=24	=24	=24	=24	=24	=24	=24	=24	=24	=24	=24	=24	=24	=24	=24	=24	=24	=24	=24	=24	=24	=24	=24	=24
!	!	!	!	!	!	!	!	!	!	!	!	!	!	!	!	!	!LO:DY:b	!	!	!LO:DY:b	!	!	!	!	!	!	!	!	!	!	!	!	!	!	!	!
!	!	!	!	!	!	!	!	!	!	!	!	!	!	!LO:DY:b	!	!	!	!	!	!	!	!	!	!	!	!	!	!	!	!	!	!	!	!	!	!
!	!	!	!	!	!	!	!	!	!	!	!	!	!	!LO:DY:t=f.	!	!	!	!	!	!	!	!	!	!	!	!	!	!	!	!	!	!	!	!	!	!
!	!	!	!	!	!	!	!	!	!	!	!LO:DY:b	!	!	!	!	!	!	!	!	!	!	!	!	!	!	!	!	!	!	!	!	!	!	!	!	!
!	!	!	!	!	!	!LO:DY:t=f.	!	!	!	!	!	!	!	!	!	!	!	!	!	!	!	!	!	!	!	!	!	!	!	!	!	!	!	!	!	!
!	!	!	!	!LO:DY:t=f.	!	!	!	!	!	!	!	!	!	!	!	!	!	!	!	!	!	!	!	!	!	!	!	!	!	!	!	!	!	!	!	!
!	!	!	!	!	!	!	!	!	!	!	!	!	!	!	!	!	!	!	!	!	!	!	!	!	!	!	!	!	!	!LO:DY:t=f.	!	!	!	!LO:DY:t=f.	!	!
4.e-\	3	f	4.c\	f	(8gg-X\L	f	(8aa-\L	.	4.e-\	A-	f	4.G-X/	A-	f	4.a-\	A-	f	4.cc\	A-	ff	2.r	.	2.r	.	2.r	.	4.G-X\	f	4.e-\	f	4.g-X/	f	4.cc\	f	(8aa-\L	f
.	.	.	.	.	8a-\)	.	8cc\)	.	.	.	.	.	.	.	.	.	.	.	.	.	.	.	.	.	.	.	.	.	.	.	.	.	.	.	8cc\)	.
.	.	.	.	.	8a-'\J	.	8cc'\J	.	.	.	.	.	.	.	.	.	.	.	.	.	.	.	.	.	.	.	.	.	.	.	.	.	.	.	8cc'\J	.
4.d-\	3	.	4.d-\	.	(8ff\L	.	(8aa-\L	.	4.d-\	-gnus	.	4.F/	-gnus	.	4.a-\	-gnus	.	4.dd-\	-gnus	.	.	.	.	.	.	.	4.F\	.	4.d-\	.	4.f/	.	4.dd-X\	.	(8aa-\L	.
.	.	.	.	.	8a-\)	.	8dd-\)	.	.	.	.	.	.	.	.	.	.	.	.	.	.	.	.	.	.	.	.	.	.	.	.	.	.	.	8dd-\)	.
.	.	.	.	.	8a-'\J	.	8dd-'\J	.	.	.	.	.	.	.	.	.	.	.	.	.	.	.	.	.	.	.	.	.	.	.	.	.	.	.	8dd-'\J	.
=25	=25	=25	=25	=25	=25	=25	=25	=25	=25	=25	=25	=25	=25	=25	=25	=25	=25	=25	=25	=25	=25	=25	=25	=25	=25	=25	=25	=25	=25	=25	=25	=25	=25	=25	=25	=25
[4.c\	7:6 3_	.	[4.e-\	.	4.ee-\	.	(4bb-\	.	4.c\	De-	.	4.E-/	De-	.	(4b-\	De-	.	4.ee-\	De-	.	2.r	.	2.r	.	2.r	.	4.E-\	.	4.c\	.	4.e-/	.	[4.ee-\	.	(4bb-\	.
.	.	.	.	.	.	.	8aa-\)	.	.	.	.	.	.	.	8a-\)	.	.	.	.	.	.	.	.	.	.	.	.	.	.	.	.	.	.	.	8aa-\)	.
4c\]	x 6	.	4e-\]	.	4ee-\	.	4aa-\	.	4c\	-i	.	4E-/	-i	.	4a-\	-i	.	4ee-\	-i	.	.	.	.	.	.	.	4E-\	.	4c\	.	4e-/	.	4ee-\]	.	4aa-\	.
8r	.	.	8r	.	8r	.	8r	.	8r	.	.	8r	.	.	8r	.	.	8r	.	.	.	.	.	.	.	.	8r	.	8r	.	8r	.	8r	.	8r	.
*clefC4	*	*	*	*	*	*	*	*	*	*	*	*	*	*	*	*	*	*	*	*	*	*	*	*	*	*	*	*	*	*	*	*	*Xtremolo	*	*	*
!	!	!	!	!	!	!	!	!	!	!	!	!	!	!	!	!	!	!LO:LB:g=original	!	!	!	!	!	!	!	!	!	!	!	!	!	!	!	!	!	!
!	!	!	!	!	!	!	!LO:LB:g=original	!	!	!	!	!	!	!	!	!	!	!	!	!	!	!	!	!	!	!	!	!	!	!	!	!	!	!	!	!
!	!	!	!	!	!	!	!	!	!	!	!	!	!	!	!	!	!	!	!	!	!	!	!	!	!	!	!	!	!	!	!	!	!	!	!LO:LB:g=original	!
=26	=26	=26	=26	=26	=26	=26	=26	=26	=26	=26	=26	=26	=26	=26	=26	=26	=26	=26	=26	=26	=26	=26	=26	=26	=26	=26	=26	=26	=26	=26	=26	=26	=26	=26	=26	=26
!LO:TX:a:t=Violnc&colon;	!	!	!	!	!	!	!	!	!LO:TX:a:t=1.	!	!	!	!	!	!	!	!	!	!	!	!	!	!	!	!	!	!LO:TX:a:t=1.	!	!	!	!LO:TX:a:t=1.	!	!LO:TX:a:t=1.	!	!LO:TX:a:t=1.	!
!	!	!	!	!	!	!	!	!	!	!	!	!	!	!	!	!	!LO:DY:b	!	!	!LO:DY:b	!	!	!	!	!	!	!	!	!	!	!	!	!	!	!	!
!	!	!	!	!	!	!	!	!	!	!	!	!	!	!LO:DY:b	!	!	!	!	!	!	!	!	!	!	!	!	!	!	!	!	!	!	!	!	!	!
4.G-X/	.	p	4.A-/	p	4.e-/	p	(8a-/L	p	2.r	.	.	4.G-X/	A-	p	4.e-\	A-	p	4.a-\	A-	p	2.r	.	2.r	.	2.r	.	2.r	.	4.G-X\	p	2.r	.	2.r	.	2.r	.
.	.	.	.	.	.	.	8c/)	.	.	.	.	.	.	.	.	.	.	.	.	.	.	.	.	.	.	.	.	.	.	.	.	.	.	.	.	.
.	.	.	.	.	.	.	8c'/J	.	.	.	.	.	.	.	.	.	.	.	.	.	.	.	.	.	.	.	.	.	.	.	.	.	.	.	.	.
4.F/	.	.	4.A-/	.	4.d-X/	.	(8a-/L	.	.	.	.	4.F/	-gnus	.	4.d-\	-gnus	.	4.a-\	-gnus	.	.	.	.	.	.	.	.	.	4.F\	.	.	.	.	.	.	.
.	.	.	.	.	.	.	8d-/)	.	.	.	.	.	.	.	.	.	.	.	.	.	.	.	.	.	.	.	.	.	.	.	.	.	.	.	.	.
.	.	.	.	.	.	.	8d-'/J	.	.	.	.	.	.	.	.	.	.	.	.	.	.	.	.	.	.	.	.	.	.	.	.	.	.	.	.	.
!	!	!	!	!	!LO:LB:g=original	!	!	!	!	!	!	!	!	!	!	!	!	!	!	!	!	!	!	!	!	!	!	!	!	!	!	!	!	!	!	!
!	!	!	!LO:LB:g=original	!	!	!	!	!	!	!	!	!	!	!	!	!	!	!	!	!	!	!	!	!	!	!	!	!	!	!	!	!	!	!	!	!
=27	=27	=27	=27	=27	=27	=27	=27	=27	=27	=27	=27	=27	=27	=27	=27	=27	=27	=27	=27	=27	=27	=27	=27	=27	=27	=27	=27	=27	=27	=27	=27	=27	=27	=27	=27	=27
4.E-/	.	.	[4.A-/	.	[4.c/	.	(4b-/	.	4r	.	.	4.E-/	De-	.	4.c\	De-	.	(4b-\	De-	.	2.r	.	2.r	.	2.r	.	4r	.	[4.E-\	.	4r	.	4r	.	4r	.
.	.	.	.	.	.	.	8a-/)	.	8r	.	.	.	.	.	.	.	.	8a-\)	.	.	.	.	.	.	.	.	8r	.	.	.	8r	.	8r	.	8r	.
!	!	!	!	!	!	!	!	!LO:DY:t=f.	!	!	!	!	!	!	!	!	!	!	!	!	!	!	!	!	!	!	!	!	!	!	!	!	!	!	!	!
8E-/	.	.	8A-/L]	.	8c/L]	.	8a-\L	f	8r	.	.	8E-/	-i	.	8c\	-i	.	8a-\	-i	.	.	.	.	.	.	.	8r	.	8E-\L]	.	8r	.	8r	.	8r	.
*clefF4	*	*	*	*	*	*	*	*	*	*	*	*	*	*	*	*	*	*	*	*	*	*	*	*	*	*	*	*	*	*	*Xtremolo	*	*	*	*	*
!LO:TX:a:t=Bassi	!	!	!	!	!	!	!	!	!	!	!	!	!	!	!	!	!	!	!	!	!	!	!	!	!	!	!	!	!	!	!	!	!	!	!	!
!	!	!	!	!	!	!	!	!	!	!	!	!	!	!	!	!	!LO:DY:b	!	!	!	!	!	!	!	!	!	!	!	!	!	!	!	!	!	!	!
!	!	!	!	!	!	!	!	!	!	!	!	!	!	!LO:DY:b	!	!	!	!	!	!	!	!	!	!	!	!	!	!	!	!	!	!	!	!	!	!
!	!	!	!	!	!	!	!	!	!	!	!	!	!	!LO:DY:t=f.	!	!	!	!	!	!	!	!	!	!	!	!	!	!	!	!	!	!	!	!	!	!
!	!	!	!	!LO:DY:t=f.	!	!	!	!	!	!	!	!	!	!	!	!	!	!	!	!	!	!	!	!	!	!	!	!	!	!	!	!	!	!	!	!
!	!	!	!	!	!	!	!	!	!	!	!	!	!	!	!	!	!	!	!	!	!	!	!	!	!	!	!	!	!	!LO:DY:t=f.	!	!	!	!LO:DY:t=f.	!	!
8F\L	6	.	8F'/	f	8a-'/	.	8dd-\	.	8F\	mi-	.	8A-\	mi-	f	8a-\	mi-	f	8dd-\	mi-	f	.	.	.	.	.	.	8F\L	f	8F\	f	8f/L	f	8dd-X\L	f	8ddd-\L	f
8F\J	.	.	8F'/J	.	8a-'/J	.	8dd-\J	.	8F\	-se-	.	8A-\	-se-	.	8a-\	-se-	.	8dd-\	-se-	.	.	.	.	.	.	.	8F\J	.	8F\J	.	8f/J	.	8dd-\J	.	8ddd-\J	.
!	!	!	!	!	!	!	!	!	!	!	!	!	!	!	!	!	!	!	!	!	!	!	!	!	!	!	!LO:LB:g=original	!	!	!	!LO:LB:g=original	!	!	!	!	!
=28	=28	=28	=28	=28	=28	=28	=28	=28	=28	=28	=28	=28	=28	=28	=28	=28	=28	=28	=28	=28	=28	=28	=28	=28	=28	=28	=28	=28	=28	=28	=28	=28	=28	=28	=28	=28
[4.G-X\	5 3	.	[4.G-X/	.	[4.a-\	.	(8dd-\L	.	4.G-X\	-re-	.	4.d-\	-re-	.	4.a-\	-re-	.	4.dd-\	-re-	.	2.r	.	2.r	.	2.r	.	[4.G-\	.	[4.G-X\	.	4g-/	.	4dd-\	.	(4ddd-X\	.
.	.	.	.	.	.	.	8b-\)	.	.	.	.	.	.	.	.	.	.	.	.	.	.	.	.	.	.	.	.	.	.	.	.	.	.	.	.	.
.	.	.	.	.	.	.	8b-'\J	.	.	.	.	.	.	.	.	.	.	.	.	.	.	.	.	.	.	.	.	.	.	.	8r	.	8r	.	8bb-\)	.
8G-\L]	.	.	8G-/L]	.	8a-\L]	.	(8b-\L	.	8G-\	-re	.	8B-\	-re	.	8b-\	-re	.	8b-\	-re	.	.	.	.	.	.	.	8G-\L]	.	8G-\L]	.	8r	.	8r	.	8bb-\L	.
8Gn\	6 3	.	8Gn'/	.	8b-'\	.	8ee-\)	.	8Gn\	mi-	.	8B-\	mi-	.	8b-\	mi-	.	8ee-\	mi-	.	.	.	.	.	.	.	8Gn'\	.	8Gn\	.	8g/L	.	8ee-\L	.	8eee-\	.
8G\J	.	.	8G'/J	.	8b-'\J	.	8ee-'\J	.	8G\	-se-	.	8B-\	-se-	.	8b-\	-se-	.	8ee-\	-se-	.	.	.	.	.	.	.	8G'\J	.	8G\J	.	8g/J	.	8ee-\J	.	8eee-\J	.
!	!	!	!	!	!	!	!	!	!	!	!	!	!	!	!LO:LB:g=original	!	!	!	!	!	!	!	!	!	!	!	!	!	!	!	!	!	!	!	!	!
!	!	!	!	!	!	!	!	!	!LO:LB:g=original	!	!	!	!	!	!	!	!	!	!	!	!	!	!	!	!	!	!	!	!	!	!	!	!	!	!	!
=29	=29	=29	=29	=29	=29	=29	=29	=29	=29	=29	=29	=29	=29	=29	=29	=29	=29	=29	=29	=29	=29	=29	=29	=29	=29	=29	=29	=29	=29	=29	=29	=29	=29	=29	=29	=29
[4.A-\	5 3	.	[4.A-/	.	[4.b-\	.	(8ee-\L	.	4.A-\	-re-	.	4.e-\	-re-	.	4.b-\	-re-	.	4.ee-\	-re-	.	2.r	.	2.r	.	2.r	.	[4.A-\	.	[4.A-\	.	4a-\	.	4ee-\	.	(4eee-\	.
.	.	.	.	.	.	.	8cc\)	.	.	.	.	.	.	.	.	.	.	.	.	.	.	.	.	.	.	.	.	.	.	.	.	.	.	.	.	.
.	.	.	.	.	.	.	8cc'\J	.	.	.	.	.	.	.	.	.	.	.	.	.	.	.	.	.	.	.	.	.	.	.	8r	.	8r	.	8ccc\)	.
!	!	!	!	!	!	!	!	!	!	!	!	!LO:LB:g=original	!	!	!	!	!	!	!	!	!	!	!	!	!	!	!	!	!	!	!	!	!	!	!	!
8A-\L]	.	.	8A-/L]	.	8b-\L]	.	(8cc\L	.	8A-\	-re	.	8c\	-re	.	8cc\	-re	.	8cc\	-re	.	.	.	.	.	.	.	8A-\L]	.	8A-\L]	.	8r	.	8r	.	8ccc\L	.
8An'\	6_ 3_	.	8An'/	.	8cc'\	.	8ff\)	.	8An\	mi-	.	8c\	mi-	.	8cc\	mi-	.	8ff\	mi-	.	.	.	.	.	.	.	8An'\	.	8An\	.	8a\L	.	8ff\L	.	8fff\	.
8A'\J	.	.	8A'/J	.	8cc'\J	.	8ff'\J	.	8A\	-se-	.	8c\	-se-	.	8cc\	-se-	.	8ff\	-se-	.	.	.	.	.	.	.	8A'\J	.	8A\J	.	8a\J	.	8ff\J	.	8fff\J	.
=30	=30	=30	=30	=30	=30	=30	=30	=30	=30	=30	=30	=30	=30	=30	=30	=30	=30	=30	=30	=30	=30	=30	=30	=30	=30	=30	=30	=30	=30	=30	=30	=30	=30	=30	=30	=30
*	*	*	*	*	*	*	*	*	*	*	*	*	*	*	*	*	*	*	*	*	*	*	*	*	*	*	*	*	*Xtremolo	*	*	*	*	*	*	*
[4.B-\	5 3	.	[4.B-/	.	[4.cc\	.	(8ff\L	.	4.B-\	-re-	.	4.f\	-re-	.	4.cc\	-re-	.	4.ff\	-re-	.	2.r	.	2.r	.	2.r	.	[4.B-\	.	[4.B-\	.	4b-\	.	4ff\	.	(4fff\	.
.	.	.	.	.	.	.	8dd-\)	.	.	.	.	.	.	.	.	.	.	.	.	.	.	.	.	.	.	.	.	.	.	.	.	.	.	.	.	.
.	.	.	.	.	.	.	8dd-'\J	.	.	.	.	.	.	.	.	.	.	.	.	.	.	.	.	.	.	.	.	.	.	.	8r	.	8r	.	8ddd-\)	.
8B-\L]	6_ 3_	.	8B-/L]	.	8cc\L]	.	(8dd-\L	.	8B-\	-re	.	8d-\	-re	.	8dd-\	-re	.	8dd-\	-re	.	.	.	.	.	.	.	8B-\L]	.	8B-\L]	.	8r	.	8r	.	8ddd-\L	.
8B-'\	.	.	8B-/	.	8dd-'\	.	8gg-X\)	.	8B-\	mi-	.	8d-\	mi-	.	8dd-\	mi-	.	8gg-X\	mi-	.	.	.	.	.	.	.	8B-'\	.	8B-\	.	8b-\L	.	8gg-X\L	.	8ggg-X\	.
8B-'\J	.	.	8B-/J	.	8dd-'\J	.	8gg-\J	.	8B-\	-se-	.	8d-\	-se-	.	8dd-\	-se-	.	8gg-\	-se-	.	.	.	.	.	.	.	8B-'\J	.	8B-\J	.	8b-\J	.	8gg-\J	.	8ggg-\J	.
!LO:LB:g=original	!	!	!	!	!	!	!	!	!	!	!	!	!	!	!	!	!	!LO:LB:g=original	!	!	!	!	!	!	!	!	!	!	!	!	!	!	!	!	!	!
=31	=31	=31	=31	=31	=31	=31	=31	=31	=31	=31	=31	=31	=31	=31	=31	=31	=31	=31	=31	=31	=31	=31	=31	=31	=31	=31	=31	=31	=31	=31	=31	=31	=31	=31	=31	=31
!	!	!	!	!	!	!	!	!	!	!	!	!	!	!	!	!	!	!	!	!LO:DY:b	!	!	!	!	!	!	!	!	!	!	!	!	!LO:TX:t=P:problem=3 kropki art.	!	!	!
!	!	!	!	!	!	!	!	!	!	!	!	!	!	!LO:DY:b	!	!	!	!	!	!	!	!	!	!	!	!	!	!	!	!	!	!	!	!	!	!
!	!	!	!	!LO:DY:t=ff.	!	!	!	!	!	!	!LO:DY:b	!	!	!	!	!	!	!	!	!	!	!	!	!	!	!	!	!	!	!	!	!	!	!	!	!LO:DY:t=ff.
*	*	*	*	*	*	*	*	*	*	*	*	*	*	*	*	*	*	*	*	*	*	*	*	*	*	*	*	*	*tremolo	*	*tremolo	*	*tremolo	*	*	*
!	!	!	!	!	!	!	!	!	!	!	!	!	!	!	!	!	!	!	!	!	!	!	!	!	!	!	!	!	!	!LO:DY:t=ff.	!	!	!	!LO:DY:t=ff.	!	!
8c\L	5_ 3_	ff	8A-/L	ff	8ee-/L	ff	8gg-X\L	ff	4c\	-re-	ff	4e-\	-re-	ff	4cc\	-re-	.	4gg-\	-re-	ff	2.r	.	2.r	.	2.r	.	8c\L	ff	8c\L	ff	8ee-\L	ff	8gg-'\L	ff	8ggg-X\L	ff
8c\	.	.	8A-/	.	8e-/ 8ee-	.	8ee-\	.	.	.	.	.	.	.	.	.	.	.	.	.	.	.	.	.	.	.	8c\	.	8c\	.	8ee-\	.	8gg-'\	.	8ggg-X\	.
8c\J	.	.	8A-/J	.	8e-/J 8ee-	.	8cc\J	.	8c\	-re	.	8e-\	-re	.	8a-\	-re	.	8gg-\	-re	.	.	.	.	.	.	.	8c\J	.	8c\J	.	8ee-\J	.	8gg-'\J	.	8ggg-X\J	.
!LO:TX:t=P:problem=mixed beam	!	!	!	!	!	!	!	!	!	!	!	!	!	!	!	!	!	!	!	!	!	!	!	!	!	!	!	!	!	!	!	!	!LO:TX:t=P:problem=3 kropki art.	!	!	!
*Xtremolo	*	*	*	*	*tremolo	*	*	*	*	*	*	*	*	*	*	*	*	*	*	*	*	*	*	*	*	*	*	*	*	*	*	*	*	*	*	*
8c\L	.	.	8A-/L	.	8e-/ 8ee-L	.	8a-/L	.	4.c\	no-	.	4.e-\	no-	.	4.a-\	no-	.	4.gg-\	no-	.	.	.	.	.	.	.	8c\L	.	8c\L	.	8ee-\L	.	8gg-'\L	.	8ggg-\L	.
8C\	.	.	8A-/	.	8e-/ 8ee-	.	8g-/	.	.	.	.	.	.	.	.	.	.	.	.	.	.	.	.	.	.	.	8c\	.	8c\	.	8ee-\	.	8gg-'\	.	8ggg-\	.
8C\J	.	.	8A-/J	.	8e-/ 8ee-J	.	8e-/J	.	.	.	.	.	.	.	.	.	.	.	.	.	.	.	.	.	.	.	8c\J	.	8c\J	.	8ee-\J	.	8gg-'\J	.	8ggg-\J	.
*	*	*	*	*	*	*	*	*	*	*	*	*	*	*	*	*	*	*	*	*	*	*	*	*	*	*	*	*	*	*	*	*	*	*	*Xtremolo	*
*	*	*	*	*	*	*	*	*	*	*	*	*	*	*	*	*	*	*	*	*	*	*	*	*	*	*	*	*	*	*	*	*	*Xtremolo	*	*	*
*	*	*	*	*	*	*	*	*	*	*	*	*	*	*	*	*	*	*	*	*	*	*	*	*	*	*	*	*	*Xtremolo	*	*	*	*	*	*	*
*	*	*	*Xtremolo	*	*Xtremolo	*	*	*	*	*	*	*	*	*	*	*	*	*	*	*	*	*	*	*	*	*	*	*	*	*	*	*	*	*	*	*
!	!	!	!	!	!	!	!	!	!	!	!	!	!	!	!	!	!	!	!	!	!	!	!	!	!	!	!	!	!	!	!	!	!LO:LB:g=original	!	!	!
=32	=32	=32	=32	=32	=32	=32	=32	=32	=32	=32	=32	=32	=32	=32	=32	=32	=32	=32	=32	=32	=32	=32	=32	=32	=32	=32	=32	=32	=32	=32	=32	=32	=32	=32	=32	=32
4C/	7	.	4.A-/	.	4.e-/ 4.ee-	.	4.c/	.	4.C/	-bis	.	4.e-\	-bis	.	4.a-\	-bis	.	4.gg-\	-bis	.	2.r	.	2.r	.	2.r	.	4.c\	.	4.c\	.	4.ee-\	.	4.gg-\	.	4.ggg-\	.
8r	.	.	.	.	.	.	.	.	.	.	.	.	.	.	.	.	.	.	.	.	.	.	.	.	.	.	.	.	.	.	.	.	.	.	.	.
4AA-/	.	p	8r	.	8r	.	8r	.	8r	.	.	8r	.	.	8r	.	.	8r	.	.	.	.	.	.	.	.	4r	.	4r	.	4r	.	4r	.	4r	.
!	!	!	!	!	!	!	!	!	!	!	!	!	!	!	!	!	!	!	!	!LO:DY:b	!	!	!	!	!	!	!	!	!	!	!	!	!	!	!	!
!	!	!	!	!	!	!	!	!	!	!	!	!	!	!	!	!	!LO:DY:b	!	!	!	!	!	!	!	!	!	!	!	!	!	!	!	!	!	!	!
!	!	!	!	!	!	!	!	!	!	!	!LO:DY:b	!	!	!LO:DY:b	!	!	!	!	!	!	!	!	!	!	!	!	!	!	!	!	!	!	!	!	!	!
.	.	.	8A-/L	p	(8e-'/L	p	(8g-'/L	p	8AA-/	mi-	p	8c\	mi-	p	8e-\	mi-	p	8g-/	mi-	p	.	.	.	.	.	.	.	.	.	.	.	.	.	.	.	.
8r	.	.	8A-/J	.	8e-'/J)	.	8g-'/J)	.	8AA-/	-se-	.	8c\	-se-	.	8e-\	-se-	.	8g-/	-se-	.	.	.	.	.	.	.	8r	.	8r	.	8r	.	8r	.	8r	.
!	!	!	!	!	!	!	!	!	!LO:LB:g=original	!	!	!	!	!	!	!	!	!	!	!	!	!	!	!	!	!	!	!	!	!	!	!	!	!	!	!
!	!	!	!	!	!	!	!	!	!	!	!	!	!	!	!	!	!	!	!	!	!	!	!	!	!	!	!	!	!	!	!	!	!	!	!LO:LB:g=original	!
=33	=33	=33	=33	=33	=33	=33	=33	=33	=33	=33	=33	=33	=33	=33	=33	=33	=33	=33	=33	=33	=33	=33	=33	=33	=33	=33	=33	=33	=33	=33	=33	=33	=33	=33	=33	=33
!	!	!	!	!	!	!	!	!	!	!	!	!	!	!	!	!	!	!	!	!	!	!	!	!	!	!	!LO:TX:a:t=2.	!	!LO:TX:a:t=2.	!	!LO:TX:a:t=2.	!	!LO:TX:a:t=2.	!	!LO:TX:a:t=2.	!
4D-\	3	.	8r	.	8r	.	8r	.	4.D-\	-re-	.	4.A-\	-re-	.	4.d-\	-re-	.	4.f/	-re-	.	2.r	.	2.r	.	2.r	.	2.r	.	2.r	.	2.r	.	2.r	.	2.r	.
.	.	.	8A-/L	.	(8d-X'/L	.	(8f'/L	.	.	.	.	.	.	.	.	.	.	.	.	.	.	.	.	.	.	.	.	.	.	.	.	.	.	.	.	.
8r	.	.	8A-/J	.	8d-'/J)	.	8f'/J)	.	.	.	.	.	.	.	.	.	.	.	.	.	.	.	.	.	.	.	.	.	.	.	.	.	.	.	.	.
4G-\	6 3	.	4.G-X/	.	4.B-/	.	(8e-/L	.	4.G-X\	-re	.	4.B-\	-re	.	4.B-/	-re	.	4.e-/	-re	.	.	.	.	.	.	.	.	.	.	.	.	.	.	.	.	.
.	.	.	.	.	.	.	8g-/	.	.	.	.	.	.	.	.	.	.	.	.	.	.	.	.	.	.	.	.	.	.	.	.	.	.	.	.	.
8r	.	.	.	.	.	.	8e-/J)	.	.	.	.	.	.	.	.	.	.	.	.	.	.	.	.	.	.	.	.	.	.	.	.	.	.	.	.	.
!	!	!	!	!	!	!	!	!	!	!	!	!	!	!	!LO:LB:g=original	!	!	!	!	!	!	!	!	!	!	!	!	!	!	!	!	!	!	!	!	!
!	!	!	!LO:LB:g=original	!	!LO:LB:g=original	!	!LO:LB:g=original	!	!	!	!	!	!	!	!	!	!	!	!	!	!	!	!	!	!	!	!	!	!	!	!	!	!	!	!	!
=34	=34	=34	=34	=34	=34	=34	=34	=34	=34	=34	=34	=34	=34	=34	=34	=34	=34	=34	=34	=34	=34	=34	=34	=34	=34	=34	=34	=34	=34	=34	=34	=34	=34	=34	=34	=34
!	!	!	!	!	!	!	!	!	!	!	!	!	!	!	!	!	!	!	!	!	!	!	!	!	!	!	!	!	!LO:TX:b:i:t=V.S.	!	!	!	!	!	!	!
4A-\	4	.	8r	.	8r	.	8r	.	(4.A-\	no-	.	2.A-\	no-	.	(4.f\	no-	.	(4.d-/	no-	.	2.r	.	2.r	.	2.r	.	2.r	.	2.r	.	2.r	.	2.r	.	2.r	.
.	.	.	8A-/L	.	(8f'/L	.	(8d-'/L	.	.	.	.	.	.	.	.	.	.	.	.	.	.	.	.	.	.	.	.	.	.	.	.	.	.	.	.	.
8r	.	.	8A-/J	.	8f'/J)	.	8d-'/J)	.	.	.	.	.	.	.	.	.	.	.	.	.	.	.	.	.	.	.	.	.	.	.	.	.	.	.	.	.
4AA-/	3	.	8r	.	8r	.	8r	.	4.AA-/)	.	.	.	.	.	4.g-X\)	.	.	4.c/)	.	.	.	.	.	.	.	.	.	.	.	.	.	.	.	.	.	.
.	.	.	8A-/L	.	8g-X/L	.	(8c'/L	.	.	.	.	.	.	.	.	.	.	.	.	.	.	.	.	.	.	.	.	.	.	.	.	.	.	.	.	.
8r	.	.	8A-/J	.	8g-/J	.	8c'/J)	.	.	.	.	.	.	.	.	.	.	.	.	.	.	.	.	.	.	.	.	.	.	.	.	.	.	.	.	.
!	!	!	!	!	!	!	!	!	!	!	!	!	!	!	!	!	!	!	!	!	!	!	!	!	!	!	!	!	!LO:LB:g=original	!	!	!	!	!	!	!
=35	=35	=35	=35	=35	=35	=35	=35	=35	=35	=35	=35	=35	=35	=35	=35	=35	=35	=35	=35	=35	=35	=35	=35	=35	=35	=35	=35	=35	=35	=35	=35	=35	=35	=35	=35	=35
!LO:TX:t=P:problem=3 kropki art.	!	!	!	!	!	!	!	!	!	!	!	!	!	!	!	!	!	!	!	!	!	!	!	!	!	!	!	!	!	!	!	!	!	!	!	!
*tremolo	*	*	*tremolo	*	*	*	*	*	*	*	*	*	*	*	*	*	*	*	*	*	*	*	*	*	*	*	*	*	*	*	*	*	*	*	*	*
8D-'\L	.	.	8d-X\L	.	8f/L	.	8d-/L	.	4D-\	-bis	.	4A-\	-bis	.	4f\	-bis	.	4d-/	-bis	.	2.r	.	2.r	.	2.r	.	4r	.	4r	.	4r	.	4r	.	4r	.
8D-'\	.	.	8d-X\	.	8d-/	.	8d-/	.	.	.	.	.	.	.	.	.	.	.	.	.	.	.	.	.	.	.	.	.	.	.	.	.	.	.	.	.
8D-'\J	.	.	8d-X\J	.	8d-/J	.	8d-/J	.	8r	.	.	8r	.	.	8r	.	.	8r	.	.	.	.	.	.	.	.	8r	.	8r	.	8r	.	8r	.	8r	.
!	!	!	!	!LO:DY:t=sf.	!	!	!	!	!	!	!	!	!	!	!	!	!	!	!	!	!	!	!	!	!	!	!	!	!	!	!	!	!	!	!	!
(16qqD-/LL	.	.	16qqd-/LL	sf	(16qqd-/LL	sf	(16qqd-/LL	sf	.	.	.	.	.	.	.	.	.	.	.	.	.	.	.	.	.	.	.	.	.	.	.	.	.	.	.	.
!LO:TX:a:i:t=Uniſono	!	!	!	!	!	!	!	!	!	!	!	!	!	!	!	!	!	!	!	!	!	!	!	!	!	!	!	!	!	!	!	!	!	!	!	!
16qqE-`/JJ)	.	.	16qqe-/JJ	.	16qqe-/JJ	.	16qqe-/JJ	.	.	.	.	.	.	.	.	.	.	.	.	.	.	.	.	.	.	.	.	.	.	.	.	.	.	.	.	.
!	!	!	!	!	!	!	!	!	!	!	!	!	!	!	!	!	!	!	!	!	!	!	!	!	!	!	!	!	!	!	!	!	!	!LO:DY:t=sf.	!	!
!	!	!	!	!	!	!	!	!	!	!	!	!	!	!	!	!	!	!	!	!	!	!	!	!	!	!	!	!	!	!LO:DY:t=sf.	!	!LO:DY:t=sf.	!	!	!	!
8.F^`\L	.	.	8.f^\L	.	8.f^</L)	.	8.f^</L)	.	4r	.	.	4r	.	.	4r	.	.	4r	.	.	.	.	.	.	.	.	8D-^<\L	.	8D-^<\L	sf	8d-X^</L	sf	8dd-^\L	sf	8ddd-^\L	sf
.	.	.	.	.	.	.	.	.	.	.	.	.	.	.	.	.	.	.	.	.	.	.	.	.	.	.	8D-^<\	.	8D-\	.	8d-X^</	.	8dd-\	.	8ddd-\	.
16E-`\K	.	.	16e-\K	.	16e-/K	.	16e-/K	.	.	.	.	.	.	.	.	.	.	.	.	.	.	.	.	.	.	.	.	.	.	.	.	.	.	.	.	.
8D-`\J	.	.	8d-\J	.	8d-/J	.	8d-/J	.	8r	.	.	8r	.	.	8r	.	.	8r	.	.	.	.	.	.	.	.	8D-^<\J	.	8D-\J	.	8d-X^</J	.	8dd-\J	.	8ddd-\J	.
*	*	*	*	*	*	*	*	*	*	*	*	*	*	*	*	*	*	*	*	*	*	*	*	*	*	*	*	*	*	*	*Xtremolo	*	*	*	*	*
!	!	!	!	!	!	!	!	!	!	!	!	!LO:LB:g=original	!	!	!	!	!	!	!	!	!	!	!	!	!	!	!	!	!	!	!	!	!	!	!	!
=36	=36	=36	=36	=36	=36	=36	=36	=36	=36	=36	=36	=36	=36	=36	=36	=36	=36	=36	=36	=36	=36	=36	=36	=36	=36	=36	=36	=36	=36	=36	=36	=36	=36	=36	=36	=36
!	!	!	!	!	!	!	!	!	!	!	!	!	!	!	!	!	!	!	!	!	!	!	!	!	!	!	!LO:TX:t=P:problem=takt wstawiony czerwoną kredką	!	!	!	!	!	!	!	!	!
!	!	!	!	!	!	!	!	!	!	!	!	!	!	!	!	!	!	!	!	!LO:DY:b	!	!	!	!	!	!	!LO:TX:a:t=1.	!	!LO:TX:a:t=1.	!	!LO:TX:a:t=1.	!	!LO:TX:a:t=1.	!	!LO:TX:a:t=1.	!
!	!	!	!	!	!	!	!	!	!	!	!	!	!	!LO:DY:t=f.	!	!	!	!	!	!	!	!	!	!	!	!	!	!	!	!	!	!	!	!	!	!
!	!	!	!	!	!	!	!	!	!	!	!LO:DY:b	!	!	!LO:DY:b	!	!	!	!	!	!	!	!	!	!	!	!	!	!	!	!	!	!	!	!	!	!
4C/	6	.	8c\L	.	8c/L	.	(8c/L	.	4.C/	A-	f	4.e-\	A-	f	4.c\	A-	.	4.a-\	A-	f	2.r	.	2.r	.	2.r	.	2.r	.	2.r	.	2.r	.	2.r	.	2.r	.
.	.	.	8c\	.	8e-/	.	8a-/)	.	.	.	.	.	.	.	.	.	.	.	.	.	.	.	.	.	.	.	.	.	.	.	.	.	.	.	.	.
8r	.	.	8c\J	.	8e-/J	.	8a-'/J	.	.	.	.	.	.	.	.	.	.	.	.	.	.	.	.	.	.	.	.	.	.	.	.	.	.	.	.	.
4F\	.	.	8r	.	8r	.	8r	.	4.F\	-gnus	.	4.c\	-gnus	.	4.e-\	-gnus	.	4.an\	-gnus	.	.	.	.	.	.	.	.	.	.	.	.	.	.	.	.	.
.	.	.	8c\L	.	(8e-'/L	.	(8an'/L	.	.	.	.	.	.	.	.	.	.	.	.	.	.	.	.	.	.	.	.	.	.	.	.	.	.	.	.	.
8r	.	.	8c\J	.	8e-'/J)	.	8a'/J)	.	.	.	.	.	.	.	.	.	.	.	.	.	.	.	.	.	.	.	.	.	.	.	.	.	.	.	.	.
!	!	!	!	!	!	!	!	!	!	!	!	!	!	!	!	!	!	!	!	!	!	!	!	!	!	!	!	!	!	!	!LO:LB:g=original	!	!	!	!	!
=37	=37	=37	=37	=37	=37	=37	=37	=37	=37	=37	=37	=37	=37	=37	=37	=37	=37	=37	=37	=37	=37	=37	=37	=37	=37	=37	=37	=37	=37	=37	=37	=37	=37	=37	=37	=37
8BB-/L	.	.	8B-/L	.	8d-/L	.	8b-/L	.	4B-\	De-	.	4d-\	De-	.	4f\	De-	.	4b-\	De-	.	2.r	.	2.r	.	2.r	.	4r	.	4r	.	4r	.	4r	.	4r	.
8BB-/	.	.	8B-/	.	8B-/	.	8B-/	.	.	.	.	.	.	.	.	.	.	.	.	.	.	.	.	.	.	.	.	.	.	.	.	.	.	.	.	.
8BB-/J	.	.	8B-/J	.	8B-/J	.	8B-/J	.	8BB-/	-i	.	8d-\	-i	.	8f\	-i	.	8b-\	-i	.	.	.	.	.	.	.	8r	.	8r	.	8r	.	8r	.	8r	.
*	*	*	*Xtremolo	*	*	*	*	*	*	*	*	*	*	*	*	*	*	*	*	*	*	*	*	*	*	*	*	*	*	*	*	*	*	*	*	*
*Xtremolo	*	*	*	*	*	*	*	*	*	*	*	*	*	*	*	*	*	*	*	*	*	*	*	*	*	*	*	*	*	*	*	*	*	*	*	*
!	!	!	!	!LO:DY:t=sf.	!	!	!	!	!	!	!	!	!	!	!	!	!	!	!	!	!	!	!	!	!	!	!	!	!	!	!	!	!	!	!	!
(16qqBB-/LL	.	.	16qqB-/LL	sf	(16qqB-/LL	sf	(16qqB-/LL	sf	.	.	.	.	.	.	.	.	.	.	.	.	.	.	.	.	.	.	.	.	.	.	.	.	.	.	.	.
!LO:TX:a:i:t=Uniſono	!	!	!	!	!	!	!	!	!	!	!	!	!	!	!	!	!	!	!	!	!	!	!	!	!	!	!	!	!	!	!	!	!	!	!	!
16qqC/JJ)	.	.	16qqc/JJ	.	16qqc/JJ	.	16qqc/JJ	.	.	.	.	.	.	.	.	.	.	.	.	.	.	.	.	.	.	.	.	.	.	.	.	.	.	.	.	.
!	!	!	!	!	!	!	!	!	!	!	!	!	!	!	!	!	!	!	!	!	!	!	!	!	!	!	!	!	!	!	!	!	!	!	!	!LO:DY:t=sf.
!	!	!	!	!	!	!	!	!	!	!	!	!	!	!	!	!	!	!	!	!	!	!	!	!	!	!	!	!	!	!LO:DY:t=sf.	!	!	!	!LO:DY:t=sf.	!	!
8.D-^</L	.	.	8.d-X^\L	.	8.d-^</L)	.	8.d-^</L)	.	4r	.	.	4r	.	.	4r	.	.	4r	.	.	.	.	.	.	.	.	8BBB-^</L	.	8BB-^</L	sf	4.B-^/	sf	8b-^\L	sf	8bb-^\L	sf
.	.	.	.	.	.	.	.	.	.	.	.	.	.	.	.	.	.	.	.	.	.	.	.	.	.	.	8BBB-^</	.	8BB-/	.	.	.	8b-\	.	8bb-\	.
16C/K	.	.	16c\K	.	16c/K	.	16c/K	.	.	.	.	.	.	.	.	.	.	.	.	.	.	.	.	.	.	.	.	.	.	.	.	.	.	.	.	.
8BB-/J	.	.	8B-\J	.	8B-/J	.	8B-/J	.	8r	.	.	8r	.	.	8r	.	.	8r	.	.	.	.	.	.	.	.	8BBB-^</J	.	8BB-/J	.	.	.	8b-\J	.	8bb-\J	.
*	*	*	*	*	*	*	*	*	*	*	*	*	*	*	*	*	*	*	*	*	*	*	*	*	*	*	*Xtremolo	*	*	*	*	*	*	*	*	*
=38	=38	=38	=38	=38	=38	=38	=38	=38	=38	=38	=38	=38	=38	=38	=38	=38	=38	=38	=38	=38	=38	=38	=38	=38	=38	=38	=38	=38	=38	=38	=38	=38	=38	=38	=38	=38
!	!	!	!	!	!	!	!	!	!	!	!	!	!	!	!	!	!	!LO:LB:g=original	!	!	!LO:TX:t=P:problem=linia falista przed 6 taktów	!	!	!	!	!	!LO:TX:a:t=6.	!	!LO:TX:a:t=6	!	!LO:TX:a:t=6	!	!LO:TX:a:i:t=Solo	!	!LO:TX:a:t=6	!
4FF/	8_ n3_	.	8An/L	.	(8An/L	.	(8An/L	.	4r	.	.	4r	.	.	4r	.	.	4r	.	.	2.FFT/	pp	2.r	.	2.r	.	2.r	.	2.r	.	2.r	.	4r	.	2.r	.
.	.	.	8c/	.	8f/)	.	8f/)	.	.	.	.	.	.	.	.	.	.	.	.	.	.	.	.	.	.	.	.	.	.	.	.	.	.	.	.	.
8r	.	.	8c/J	.	8f'/J	.	8f'/J	.	8r	.	.	8r	.	.	8r	.	.	8r	.	.	.	.	.	.	.	.	.	.	.	.	.	.	8r	.	.	.
!	!	!	!	!	!	!	!	!	!	!	!	!	!	!	!LO:SIC:s=4.c	!	!	!	!	!	!	!	!	!	!	!	!	!	!	!	!	!	!	!	!	!
!	!	!	!	!	!	!	!	!	!	!	!	!	!	!	!	!	!	!	!	!LO:DY:b	!	!	!	!	!	!	!	!	!	!	!	!	!	!	!	!
!	!	!	!	!	!	!	!	!	!	!	!LO:DY:b	!	!	!LO:DY:b	!	!	!	!	!	!	!	!	!	!	!	!	!	!	!	!	!	!	!	!	!	!
4FF/	.	.	8r	.	8r	.	8r	.	4.FF/	qui	p	4.An\	qui	p	4.d-\	qui	.	4.f/	qui	p	.	.	.	.	.	.	.	.	.	.	.	.	8r	.	.	.
!	!	!	!	!	!	!	!	!	!	!	!	!	!	!	!	!	!	!	!	!	!	!	!	!	!	!	!	!	!	!	!	!	!LO:TX:b:t=dolce	!	!	!
.	.	.	8c/L	.	(8e-'/L	.	(8f'/L	.	.	.	.	.	.	.	.	.	.	.	.	.	.	.	.	.	.	.	.	.	.	.	.	.	(8cc\L	.	.	.
8r	.	.	8c/J	.	8e-'/J)	.	8f'/J)	.	.	.	.	.	.	.	.	.	.	.	.	.	.	.	.	.	.	.	.	.	.	.	.	.	8ff\J)	.	.	.
!LO:LB:g=original	!	!	!	!	!LO:LB:g=original	!	!	!	!	!	!	!	!	!	!	!	!	!	!	!	!	!	!	!	!	!	!	!	!	!	!	!	!	!	!	!
=39	=39	=39	=39	=39	=39	=39	=39	=39	=39	=39	=39	=39	=39	=39	=39	=39	=39	=39	=39	=39	=39	=39	=39	=39	=39	=39	=39	=39	=39	=39	=39	=39	=39	=39	=39	=39
4FF/	6_ 4_	.	8r	.	8r	.	8r	.	4.FF/	tol-	.	4.B-\	tol-	.	4.d-\	tol-	.	4.f/	tol-	.	2.FF/	.	2.r	.	2.r	.	2.r	.	2.r	.	2.r	.	(8ee-\L	.	2.r	.
.	.	.	8B-/L	.	(8d-'/L	.	(8f'/L	.	.	.	.	.	.	.	.	.	.	.	.	.	.	.	.	.	.	.	.	.	.	.	.	.	8dd-X\)	.	.	.
8r	.	.	8B-/J	.	8d-'/J)	.	8f'/J)	.	.	.	.	.	.	.	.	.	.	.	.	.	.	.	.	.	.	.	.	.	.	.	.	.	8dd-'\J	.	.	.
4FF/	.	.	8r	.	8r	.	8r	.	4FF/	-lis	.	4B-\	-lis	.	4d-\	-lis	.	4f/	-lis	.	.	.	.	.	.	.	.	.	.	.	.	.	(8dd-\L	.	.	.
.	.	.	8B-/L	.	(8d-'/L	.	(8f'/L	.	.	.	.	.	.	.	.	.	.	.	.	.	.	.	.	.	.	.	.	.	.	.	.	.	8cc\	.	.	.
8r	.	.	8B-/J	.	8d-'/J)	.	8f'/J)	.	8FF/	pec-	.	8B-\	pec-	.	8d-\	pec-	.	8f/	pec-	.	.	.	.	.	.	.	.	.	.	.	.	.	8b-\J)	.	.	.
!	!	!	!	!	!	!	!LO:LB:g=original	!	!	!	!	!	!	!	!	!	!	!	!	!	!	!	!	!	!	!	!	!	!	!	!	!	!	!	!	!
=40	=40	=40	=40	=40	=40	=40	=40	=40	=40	=40	=40	=40	=40	=40	=40	=40	=40	=40	=40	=40	=40	=40	=40	=40	=40	=40	=40	=40	=40	=40	=40	=40	=40	=40	=40	=40
4FF/	5_ n_	.	8r	.	8r	.	8r	.	4FF/	-ca-	.	4An\	-ca-	.	4c\	-ca-	.	4f/	-ca-	.	2.FF/	.	2.r	.	2.r	.	2.r	.	2.r	.	2.r	.	4a\	.	2.r	.
.	.	.	8An/L	.	(8c'/L	.	(8f'/L	.	.	.	.	.	.	.	.	.	.	.	.	.	.	.	.	.	.	.	.	.	.	.	.	.	.	.	.	.
8r	.	.	8A/J	.	8c'/J)	.	8f'/J)	.	8FF/	-ta	.	8A\	-ta	.	8c\	-ta	.	8f/	-ta	.	.	.	.	.	.	.	.	.	.	.	.	.	(32cc\LLL	.	.	.
.	.	.	.	.	.	.	.	.	.	.	.	.	.	.	.	.	.	.	.	.	.	.	.	.	.	.	.	.	.	.	.	.	32b-\	.	.	.
.	.	.	.	.	.	.	.	.	.	.	.	.	.	.	.	.	.	.	.	.	.	.	.	.	.	.	.	.	.	.	.	.	32a\	.	.	.
.	.	.	.	.	.	.	.	.	.	.	.	.	.	.	.	.	.	.	.	.	.	.	.	.	.	.	.	.	.	.	.	.	32b-\JJJ)	.	.	.
!	!	!	!LO:LB:g=original	!	!	!	!	!	!	!	!	!	!	!	!	!	!	!	!	!	!	!	!	!	!	!	!	!	!	!	!	!	!	!	!	!
4FF/	.	.	8r	.	8r	.	8r	.	4.FF/	mun-	.	4.c\	mun-	.	4.e-\	mun-	.	4.f/	mun-	.	.	.	.	.	.	.	.	.	.	.	.	.	8cc'\L	.	.	.
.	.	.	8c/L	.	(8e-'/L	.	(8f'/L	.	.	.	.	.	.	.	.	.	.	.	.	.	.	.	.	.	.	.	.	.	.	.	.	.	(8cc\	.	.	.
8r	.	.	8c/J	.	8e-'/J)	.	8f'/J)	.	.	.	.	.	.	.	.	.	.	.	.	.	.	.	.	.	.	.	.	.	.	.	.	.	8ff\J)	.	.	.
!	!	!	!	!	!	!	!	!	!	!	!	!	!	!	!LO:LB:g=original	!	!	!	!	!	!	!	!	!	!	!	!	!	!	!	!	!	!	!	!	!
!	!	!	!	!	!	!	!	!	!LO:LB:g=original	!	!	!	!	!	!	!	!	!	!	!	!	!	!	!	!	!	!	!	!	!	!	!	!	!	!	!
=41	=41	=41	=41	=41	=41	=41	=41	=41	=41	=41	=41	=41	=41	=41	=41	=41	=41	=41	=41	=41	=41	=41	=41	=41	=41	=41	=41	=41	=41	=41	=41	=41	=41	=41	=41	=41
4FF/	6 4	.	8r	.	8r	.	8r	.	8FF/	-di	.	8B-\	-di	.	8d-\	-di	.	8f/	-di	.	2.FF/	.	2.r	.	2.r	.	2.r	.	2.r	.	2.r	.	(8ee-\L	.	2.r	.
.	.	.	8B-/L	.	(8d-'/L	.	(8f'/L	.	8FF/	mi-	.	8B-\	mi-	.	8d-\	mi-	.	8f/	mi-	.	.	.	.	.	.	.	.	.	.	.	.	.	8dd-X\)	.	.	.
8r	.	.	8B-/J	.	8d-'/J)	.	8f'/J)	.	8FF/	-ſe-	.	8B-\	-se-	.	8d-\	-se-	.	8f/	-se-	.	.	.	.	.	.	.	.	.	.	.	.	.	8dd-'\J	.	.	.
4FF/	.	.	8r	.	8r	.	8r	.	4FF/	-re-	.	4B-\	-re-	.	4d-\	-re-	.	4f/	-re-	.	.	.	.	.	.	.	.	.	.	.	.	.	(8dd-\L	.	.	.
.	.	.	8B-/L	.	(8d-'/L	.	(8f'/L	.	.	.	.	.	.	.	.	.	.	.	.	.	.	.	.	.	.	.	.	.	.	.	.	.	8cc\	.	.	.
8r	.	.	8B-/J	.	8d-'/J)	.	8f'/J)	.	8FF/	-re	.	8B-\	-re	.	8d-\	-re	.	8f/	-re	.	.	.	.	.	.	.	.	.	.	.	.	.	8b-\J)	.	.	.
!	!	!	!	!	!	!	!	!	!	!	!	!LO:LB:g=original	!	!	!	!	!	!	!	!	!	!	!	!	!	!	!	!	!	!	!	!	!	!	!	!
!	!	!	!	!	!	!	!	!	!	!	!	!	!	!	!	!	!	!	!	!	!	!	!	!	!	!	!	!	!	!	!	!	!LO:LB:g=original	!	!	!
=42	=42	=42	=42	=42	=42	=42	=42	=42	=42	=42	=42	=42	=42	=42	=42	=42	=42	=42	=42	=42	=42	=42	=42	=42	=42	=42	=42	=42	=42	=42	=42	=42	=42	=42	=42	=42
4FF/	5 n	.	4An/	.	4c/	.	4f/	.	2.FF/	no-	.	2.An\	no-	.	2.c\	no-	.	2.f/	no-	.	2.FF/	.	2.r	.	2.r	.	2.r	.	2.r	.	2.r	.	(8a\L	.	2.r	.
.	.	.	.	.	.	.	.	.	.	.	.	.	.	.	.	.	.	.	.	.	.	.	.	.	.	.	.	.	.	.	.	.	8f\	.	.	.
8r	.	.	8r	.	8r	.	8r	.	.	.	.	.	.	.	.	.	.	.	.	.	.	.	.	.	.	.	.	.	.	.	.	.	8a\J	.	.	.
4FF/	.	.	4F/	.	4c/	.	4an/	.	.	.	.	.	.	.	.	.	.	.	.	.	.	.	.	.	.	.	.	.	.	.	.	.	8cc\L	.	.	.
.	.	.	.	.	.	.	.	.	.	.	.	.	.	.	.	.	.	.	.	.	.	.	.	.	.	.	.	.	.	.	.	.	8a\)	.	.	.
8r	.	.	8r	.	8r	.	8r	.	.	.	.	.	.	.	.	.	.	.	.	.	.	.	.	.	.	.	.	.	.	.	.	.	8cc\J	.	.	.
=43	=43	=43	=43	=43	=43	=43	=43	=43	=43	=43	=43	=43	=43	=43	=43	=43	=43	=43	=43	=43	=43	=43	=43	=43	=43	=43	=43	=43	=43	=43	=43	=43	=43	=43	=43	=43
!LO:TX:b:i:t=Attacca Dona	!	!	!LO:TX:b:i:t=Attacca Dona	!	!LO:TX:b:i:t=Attacca Dona	!	!LO:TX:b:i:t=Verte Attacca Dona	!	!LO:TX:b:t=Attaca	!	!	!LO:TX:b:t=Attaca	!	!	!LO:TX:b:t=Attaca	!	!	!LO:TX:b:t=Attaca	!	!	!LO:TX:b:t=Attacca Dona	!	!LO:TX:b:i:t=Attacca Dona	!	!LO:TX:b:i:t=Attacca Dona	!	!LO:TX:b:i:t=Attacca Dona	!	!LO:TX:b:i:t=Attacca Dona	!	!LO:TX:b:i:t=Attacca Dona	!	!LO:TX:b:i:t=Attacca Dona	!	!LO:TX:b:i:t=Attacca Dona	!
2.FF/	7	.	2.F/	.	2.c/ 2.e-	.	2.cc\	.	2.FF/	-bis	.	2.An\	-bis.	.	2.c\	-bis	.	2.f/	-bis	.	2.FF/	.	2.r	.	2.r	.	2.r	.	2.r	.	2.r	.	2.ee-\	.	2.r	.
==	==	==	==	==	==	==	==	==	==	==	==	==	==	==	==	==	==	==	==	==	==	==	==	==	==	==	==	==	==	==	==	==	==	==	==	==
*-	*-	*-	*-	*-	*-	*-	*-	*-	*-	*-	*-	*-	*-	*-	*-	*-	*-	*-	*-	*-	*-	*-	*-	*-	*-	*-	*-	*-	*-	*-	*-	*-	*-	*-	*-	*-
!!!system-decoration: [(s1,s2,s3,s4,s5)][(s6,s7)][(s8)][(s9,s10,s11,s12)][(s13,s14,s15)]s16
!!!RDF**kern: < = above
!!!RDF**kern: > = below
!!!ENC: Andrzej Borzym
!!!END: 2020-10-13
!!!ENC: Natalia Wrzos
!!!END: 2022-01-18
